;Sliced by ideaMaker 4.3.2.6470, 2023-03-11 13:25:29 UTC+0100
;Dimension: 326.000 326.000 311.550 0.500
;Plate Shape: 0
;Origin Center: 0
;Extruder Offset #1: 25.000 0.000
;Filament Diameter #1: 1.750
;Filament Diameter #2: 1.750
;Filament Compensation #1: 100.00
;Filament Compensation #2: 90.00
;Filament Density #1: 1240.00
;Filament Density #2: 1240.00
;Filament Type #1: PLA
;Filament Type #2: 
;Filament Name #1: [TEQStone] White PLA 1.75mm
;Filament Name #2: 
;Firmware: RepRapFirmware
;Bounding Box: 2.220 57.780 27.220 52.780 0.000 4.250
;Model Gap: 0.000
M92 E415.00000
M221 T0 S100.00
M140 S60.00
M104 T0 S200.00
M109 T0 S200.00
T0
M190 S60.00
G21
G90
M82
M107
if !move.axes[0].homed || !move.axes[1].homed || !move.axes[2].homed
G28
G1 Z0 F500
G92 E0
G1 Z0.2 F400
G1 X60 Y-2 F800
G1 X140 Y-2 E12 F200
G1 Z5 E15 F200
G92 E0
G1 F3000.0
; 0.5mm Nozzle
; M572 D0 S0.5
; 0.3mm Nozzle
; M572 D0 S0.72
M1001
;TOTAL_NUM: 1
;PRINTING_TIME: 0
;REMAINING_TIME: 1010
M83
;LAYER:0
;Z:0.250
;HEIGHT:0.250
M106 S0
M140 S63
;PRINTING: NON-OBJECT
;PRINTING_ID: -1
G10
G0 F3000 X5.166 Y27.219
G0 F900 Z0.250
G0 F3000 X5.184 Y27.317
;TYPE:SKIRT
;WIDTH:0.520
G11
G1 F900 X5.723 Y27.233 E0.0295
G1 X6.032 Y27.220 E0.0167
G1 X54.034 Y27.221 E2.5944
G1 X54.612 Y27.276 E0.0314
G1 X55.078 Y27.380 E0.0258
G1 X55.702 Y27.634 E0.0364
G1 X56.023 Y27.815 E0.0199
G1 X56.336 Y28.031 E0.0206
G1 X56.737 Y28.403 E0.0296
G1 X57.021 Y28.731 E0.0234
G1 X57.180 Y28.968 E0.0154
G1 X57.347 Y29.258 E0.0181
G1 X57.529 Y29.655 E0.0236
G1 X57.707 Y30.300 E0.0362
G1 X57.777 Y30.944 E0.0350
G1 X57.780 Y49.000 E0.9759
G1 X57.757 Y49.358 E0.0194
G1 X57.712 Y49.672 E0.0171
G1 X57.547 Y50.299 E0.0350
G1 X57.338 Y50.759 E0.0273
G1 X57.185 Y51.023 E0.0165
G1 X56.969 Y51.336 E0.0206
G1 X56.597 Y51.737 E0.0296
G1 X56.269 Y52.021 E0.0234
G1 X55.796 Y52.318 E0.0302
G1 X55.405 Y52.507 E0.0235
G1 X54.816 Y52.683 E0.0332
G1 X54.277 Y52.767 E0.0295
G1 X53.968 Y52.780 E0.0167
G1 X5.951 Y52.778 E2.5952
G1 X5.340 Y52.715 E0.0332
G1 X4.922 Y52.620 E0.0232
G1 X4.298 Y52.366 E0.0364
G1 X3.970 Y52.181 E0.0204
G1 X3.533 Y51.859 E0.0293
G1 X3.101 Y51.415 E0.0335
G1 X2.906 Y51.157 E0.0175
G1 X2.573 Y50.585 E0.0358
G1 X2.396 Y50.119 E0.0269
G1 X2.316 Y49.818 E0.0168
G1 X2.248 Y49.444 E0.0205
G1 X2.229 Y49.132 E0.0169
G1 X2.220 Y31.001 E0.9799
G1 X2.243 Y30.642 E0.0194
G1 X2.288 Y30.328 E0.0171
G1 X2.453 Y29.701 E0.0350
G1 X2.662 Y29.241 E0.0273
G1 X2.815 Y28.977 E0.0165
G1 X3.031 Y28.664 E0.0206
G1 X3.403 Y28.263 E0.0296
G1 X3.731 Y27.979 E0.0234
G1 X4.204 Y27.682 E0.0302
G1 X4.595 Y27.493 E0.0235
G1 X5.089 Y27.345 E0.0279
G0 F900 X5.184 Y27.317
G0 F3000 X5.267 Y27.830
G1 F900 X5.745 Y27.753 E0.0262
G1 X6.054 Y27.740 E0.0167
G1 X54.000 Y27.740 E2.5914
G1 X54.291 Y27.759 E0.0158
G1 X54.545 Y27.792 E0.0138
G1 X54.963 Y27.887 E0.0232
G1 X55.501 Y28.113 E0.0315
G1 X55.728 Y28.243 E0.0141
G1 X56.041 Y28.459 E0.0206
G1 X56.379 Y28.780 E0.0252
G1 X56.626 Y29.069 E0.0205
G1 X56.743 Y29.250 E0.0116
G1 X56.874 Y29.475 E0.0141
G1 X57.056 Y29.872 E0.0236
G1 X57.204 Y30.433 E0.0314
G1 X57.259 Y30.995 E0.0305
G1 X57.260 Y49.000 E0.9731
G1 X57.241 Y49.291 E0.0158
G1 X57.208 Y49.545 E0.0138
G1 X57.072 Y50.087 E0.0302
G1 X56.887 Y50.501 E0.0245
G1 X56.757 Y50.728 E0.0141
G1 X56.541 Y51.041 E0.0206
G1 X56.220 Y51.379 E0.0252
G1 X55.931 Y51.626 E0.0205
G1 X55.525 Y51.874 E0.0257
G1 X55.182 Y52.037 E0.0205
G1 X54.733 Y52.170 E0.0253
G1 X54.255 Y52.247 E0.0262
G1 X53.946 Y52.260 E0.0167
G1 X6.000 Y52.260 E2.5914
G1 X5.455 Y52.208 E0.0296
G1 X5.037 Y52.113 E0.0232
G1 X4.499 Y51.887 E0.0315
G1 X4.272 Y51.757 E0.0141
G1 X3.904 Y51.495 E0.0244
G1 X3.512 Y51.096 E0.0302
G1 X3.352 Y50.890 E0.0141
G1 X3.058 Y50.399 E0.0309
G1 X2.898 Y49.982 E0.0241
G1 X2.828 Y49.725 E0.0144
G1 X2.760 Y49.351 E0.0205
G1 X2.749 Y49.132 E0.0119
G1 X2.740 Y31.001 E0.9799
G1 X2.759 Y30.709 E0.0158
G1 X2.792 Y30.455 E0.0138
G1 X2.928 Y29.913 E0.0302
G1 X3.113 Y29.499 E0.0245
G1 X3.243 Y29.272 E0.0141
G1 X3.459 Y28.959 E0.0206
G1 X3.780 Y28.621 E0.0252
G1 X4.069 Y28.374 E0.0205
G1 X4.475 Y28.126 E0.0257
G1 X4.818 Y27.963 E0.0205
G1 X5.172 Y27.858 E0.0200
G0 F900 X5.267 Y27.830
;PRINTING: wave_round_preform.stl
;PRINTING_ID: 0
G10
G0 F3000 X5.916 Y30.805
;TYPE:WALL-INNER
;WIDTH:0.520
G11
G1 F900 X6.074 Y30.780 E0.0086
G1 X54.042 Y30.792 E2.5926
G1 X54.169 Y30.870 E0.0081
G1 X54.203 Y30.929 E0.0037
G1 X54.219 Y31.047 E0.0064
G1 X54.220 Y48.936 E0.9669
G1 X54.192 Y49.090 E0.0085
G1 X54.130 Y49.168 E0.0054
G1 X54.084 Y49.195 E0.0029
G1 X53.926 Y49.220 E0.0086
G1 X6.064 Y49.220 E2.5868
G1 X5.893 Y49.189 E0.0094
G1 X5.805 Y49.087 E0.0073
G1 X5.789 Y49.027 E0.0034
G1 X5.780 Y31.064 E0.9709
G1 X5.808 Y30.910 E0.0085
G1 X5.841 Y30.869 E0.0028
G0 F900 X5.870 Y30.832
G0 F900 X5.916 Y30.805
G10
G0 F3000 X5.713 Y30.321
;TYPE:WALL-OUTER
;WIDTH:0.520
G11
G1 F900 X5.906 Y30.268 E0.0108
G1 X6.061 Y30.260 E0.0084
G1 X53.983 Y30.260 E2.5901
G1 X54.196 Y30.288 E0.0116
G1 X54.446 Y30.413 E0.0151
G1 X54.583 Y30.548 E0.0104
G1 X54.684 Y30.721 E0.0108
G1 X54.710 Y30.797 E0.0043
G1 X54.739 Y31.012 E0.0117
G1 X54.740 Y48.983 E0.9713
G1 X54.687 Y49.272 E0.0159
G1 X54.587 Y49.446 E0.0108
G1 X54.452 Y49.583 E0.0104
G1 X54.287 Y49.679 E0.0103
G1 X54.094 Y49.732 E0.0108
G1 X53.939 Y49.740 E0.0084
G1 X6.017 Y49.740 E2.5901
G1 X5.728 Y49.687 E0.0159
G1 X5.547 Y49.583 E0.0113
G1 X5.358 Y49.365 E0.0156
G1 X5.323 Y49.295 E0.0042
G1 X5.269 Y49.096 E0.0111
G1 X5.260 Y31.017 E0.9771
G1 X5.313 Y30.728 E0.0159
G1 X5.413 Y30.554 E0.0108
G1 X5.548 Y30.417 E0.0104
G1 X5.627 Y30.371 E0.0049
G0 F900 X5.713 Y30.321
G10
G0 F3000 X6.300 Y31.300
;TYPE:SOLID-FILL
;WIDTH:0.520
G11
G1 F900 X53.699 Y31.312 E2.5618
G1 X53.700 Y48.700 E0.9398
G1 X6.309 Y48.700 E2.5614
G1 X6.300 Y31.400 E0.9350
G0 F900 X6.300 Y31.300
G0 F3000 X6.500 Y31.405
G1 F900 X6.500 Y48.596 E0.9291
G0 F3000 X7.020 Y48.596
G1 F900 X7.020 Y31.405 E0.9291
G0 F3000 X7.540 Y31.405
G1 F900 X7.540 Y48.596 E0.9291
G0 F3000 X8.060 Y48.596
G1 F900 X8.060 Y31.405 E0.9291
G0 F3000 X8.580 Y31.405
G1 F900 X8.580 Y48.596 E0.9291
G0 F3000 X9.100 Y48.596
G1 F900 X9.100 Y31.405 E0.9291
G0 F3000 X9.620 Y31.405
G1 F900 X9.620 Y48.596 E0.9291
G0 F3000 X10.140 Y48.596
G1 F900 X10.140 Y31.405 E0.9291
G0 F3000 X10.660 Y31.406
G1 F900 X10.660 Y48.596 E0.9291
G0 F3000 X11.180 Y48.596
G1 F900 X11.180 Y31.406 E0.9291
G0 F3000 X11.700 Y31.406
G1 F900 X11.700 Y48.596 E0.9291
G0 F3000 X12.220 Y48.596
G1 F900 X12.220 Y31.406 E0.9291
G0 F3000 X12.740 Y31.406
G1 F900 X12.740 Y48.596 E0.9291
G0 F3000 X13.260 Y48.596
G1 F900 X13.260 Y31.406 E0.9291
G0 F3000 X13.780 Y31.406
G1 F900 X13.780 Y48.596 E0.9291
G0 F3000 X14.300 Y48.596
G1 F900 X14.300 Y31.407 E0.9290
G0 F3000 X14.820 Y31.407
G1 F900 X14.820 Y48.596 E0.9290
G0 F3000 X15.340 Y48.596
G1 F900 X15.340 Y31.407 E0.9290
G0 F3000 X15.860 Y31.407
G1 F900 X15.860 Y48.596 E0.9290
G0 F3000 X16.380 Y48.596
G1 F900 X16.380 Y31.407 E0.9290
G0 F3000 X16.900 Y31.407
G1 F900 X16.900 Y48.596 E0.9290
G0 F3000 X17.420 Y48.596
G1 F900 X17.420 Y31.407 E0.9290
G0 F3000 X17.940 Y31.407
G1 F900 X17.940 Y48.596 E0.9290
G0 F3000 X18.460 Y48.596
G1 F900 X18.460 Y31.408 E0.9290
G0 F3000 X18.980 Y31.408
G1 F900 X18.980 Y48.596 E0.9290
G0 F3000 X19.500 Y48.596
G1 F900 X19.500 Y31.408 E0.9290
G0 F3000 X20.020 Y31.408
G1 F900 X20.020 Y48.596 E0.9290
G0 F3000 X20.540 Y48.596
G1 F900 X20.540 Y31.408 E0.9290
G0 F3000 X21.060 Y31.408
G1 F900 X21.060 Y48.596 E0.9290
G0 F3000 X21.580 Y48.596
G1 F900 X21.580 Y31.408 E0.9290
G0 F3000 X22.100 Y31.408
G1 F900 X22.100 Y48.596 E0.9290
G0 F3000 X22.620 Y48.596
G1 F900 X22.620 Y31.409 E0.9289
G0 F3000 X23.140 Y31.409
G1 F900 X23.140 Y48.596 E0.9289
G0 F3000 X23.660 Y48.596
G1 F900 X23.660 Y31.409 E0.9289
G0 F3000 X24.180 Y31.409
G1 F900 X24.180 Y48.596 E0.9289
G0 F3000 X24.700 Y48.596
G1 F900 X24.700 Y31.409 E0.9289
G0 F3000 X25.220 Y31.409
G1 F900 X25.220 Y48.596 E0.9289
G0 F3000 X25.740 Y48.596
G1 F900 X25.740 Y31.409 E0.9289
G0 F3000 X26.260 Y31.410
G1 F900 X26.260 Y48.596 E0.9289
G0 F3000 X26.780 Y48.596
G1 F900 X26.780 Y31.410 E0.9289
G0 F3000 X27.300 Y31.410
G1 F900 X27.300 Y48.596 E0.9289
G0 F3000 X27.820 Y48.596
G1 F900 X27.820 Y31.410 E0.9289
G0 F3000 X28.340 Y31.410
G1 F900 X28.340 Y48.596 E0.9289
G0 F3000 X28.860 Y48.596
G1 F900 X28.860 Y31.410 E0.9289
G0 F3000 X29.380 Y31.410
G1 F900 X29.380 Y48.596 E0.9289
G0 F3000 X29.900 Y48.596
G1 F900 X29.900 Y31.410 E0.9289
G0 F3000 X30.420 Y31.411
G1 F900 X30.420 Y48.596 E0.9288
G0 F3000 X30.940 Y48.596
G1 F900 X30.940 Y31.411 E0.9288
G0 F3000 X31.460 Y31.411
G1 F900 X31.460 Y48.596 E0.9288
G0 F3000 X31.980 Y48.596
G1 F900 X31.980 Y31.411 E0.9288
G0 F3000 X32.500 Y31.411
G1 F900 X32.500 Y48.596 E0.9288
G0 F3000 X33.020 Y48.596
G1 F900 X33.020 Y31.411 E0.9288
G0 F3000 X33.540 Y31.411
G1 F900 X33.540 Y48.596 E0.9288
G0 F3000 X34.060 Y48.596
G1 F900 X34.060 Y31.412 E0.9288
G0 F3000 X34.580 Y31.412
G1 F900 X34.580 Y48.596 E0.9288
G0 F3000 X35.100 Y48.596
G1 F900 X35.100 Y31.412 E0.9288
G0 F3000 X35.620 Y31.412
G1 F900 X35.620 Y48.596 E0.9288
G0 F3000 X36.140 Y48.596
G1 F900 X36.140 Y31.412 E0.9288
G0 F3000 X36.660 Y31.412
G1 F900 X36.660 Y48.596 E0.9288
G0 F3000 X37.180 Y48.596
G1 F900 X37.180 Y31.412 E0.9288
G0 F3000 X37.700 Y31.412
G1 F900 X37.700 Y48.596 E0.9288
G0 F3000 X38.220 Y48.596
G1 F900 X38.220 Y31.413 E0.9287
G0 F3000 X38.740 Y31.413
G1 F900 X38.740 Y48.596 E0.9287
G0 F3000 X39.260 Y48.596
G1 F900 X39.260 Y31.413 E0.9287
G0 F3000 X39.780 Y31.413
G1 F900 X39.780 Y48.596 E0.9287
G0 F3000 X40.300 Y48.596
G1 F900 X40.300 Y31.413 E0.9287
G0 F3000 X40.820 Y31.413
G1 F900 X40.820 Y48.596 E0.9287
G0 F3000 X41.340 Y48.596
G1 F900 X41.340 Y31.413 E0.9287
G0 F3000 X41.860 Y31.414
G1 F900 X41.860 Y48.596 E0.9286
G0 F3000 X42.380 Y48.596
G1 F900 X42.380 Y31.414 E0.9286
G0 F3000 X42.900 Y31.414
G1 F900 X42.900 Y48.596 E0.9286
G0 F3000 X43.420 Y48.596
G1 F900 X43.420 Y31.414 E0.9286
G0 F3000 X43.940 Y31.414
G1 F900 X43.940 Y48.596 E0.9286
G0 F3000 X44.460 Y48.596
G1 F900 X44.460 Y31.414 E0.9286
G0 F3000 X44.980 Y31.414
G1 F900 X44.980 Y48.596 E0.9286
G0 F3000 X45.500 Y48.596
G1 F900 X45.500 Y31.414 E0.9286
G0 F3000 X46.020 Y31.415
G1 F900 X46.020 Y48.596 E0.9286
G0 F3000 X46.540 Y48.596
G1 F900 X46.540 Y31.415 E0.9286
G0 F3000 X47.060 Y31.415
G1 F900 X47.060 Y48.596 E0.9286
G0 F3000 X47.580 Y48.596
G1 F900 X47.580 Y31.415 E0.9286
G0 F3000 X48.100 Y31.415
G1 F900 X48.100 Y48.596 E0.9286
G0 F3000 X48.620 Y48.596
G1 F900 X48.620 Y31.415 E0.9286
G0 F3000 X49.140 Y31.415
G1 F900 X49.140 Y48.596 E0.9286
G0 F3000 X49.660 Y48.596
G1 F900 X49.660 Y31.415 E0.9286
G0 F3000 X50.180 Y31.416
G1 F900 X50.180 Y48.596 E0.9285
G0 F3000 X50.700 Y48.596
G1 F900 X50.700 Y31.416 E0.9285
G0 F3000 X51.220 Y31.416
G1 F900 X51.220 Y48.596 E0.9285
G0 F3000 X51.740 Y48.596
G1 F900 X51.740 Y31.416 E0.9285
G0 F3000 X52.260 Y31.416
G1 F900 X52.260 Y48.596 E0.9285
G0 F3000 X52.780 Y48.596
G1 F900 X52.780 Y31.416 E0.9285
G0 F3000 X53.300 Y31.416
G1 F900 X53.300 Y48.596 E0.9285
;PRINTING_TIME: 159
;REMAINING_TIME: 852
;LAYER:1
;Z:0.450
;HEIGHT:0.200
M106 S153
M140 S60
;PRINTING: wave_round_preform.stl
;PRINTING_ID: 0
G10
G0 F900 Z0.450
G0 F3000 X6.000 Y31.007
;TYPE:WALL-INNER
;WIDTH:0.400
G11
G1 F1400 X53.999 Y31.000 E1.5965
G1 X54.000 Y48.993 E0.5984
G1 X6.009 Y49.000 E1.5962
G1 X6.000 Y31.107 E0.5951
G0 F1400 X6.000 Y31.007
G0 F3000 X5.684 Y30.764
G1 F1400 X5.757 Y30.690 E0.0035
G1 X5.844 Y30.638 E0.0034
G1 X5.952 Y30.609 E0.0037
G1 X6.140 Y30.600 E0.0063
G1 X53.963 Y30.600 E1.5906
G1 X54.123 Y30.620 E0.0054
G1 X54.236 Y30.684 E0.0043
G1 X54.310 Y30.757 E0.0035
G1 X54.376 Y30.867 E0.0043
G1 X54.399 Y31.031 E0.0055
G1 X54.400 Y48.963 E0.5964
G1 X54.380 Y49.123 E0.0054
G1 X54.316 Y49.236 E0.0043
G1 X54.243 Y49.310 E0.0035
G1 X54.156 Y49.362 E0.0034
G1 X54.048 Y49.391 E0.0037
G1 X53.860 Y49.400 E0.0063
G1 X6.037 Y49.400 E1.5906
G1 X5.877 Y49.380 E0.0054
G1 X5.741 Y49.303 E0.0052
G1 X5.645 Y49.181 E0.0052
G1 X5.609 Y49.050 E0.0045
G1 X5.600 Y31.037 E0.5991
G1 X5.620 Y30.877 E0.0054
G1 X5.635 Y30.851 E0.0010
G0 F1400 X5.684 Y30.764
G10
G0 F3000 X5.362 Y30.521
;TYPE:WALL-OUTER
;WIDTH:0.400
G11
G1 F1300 X5.508 Y30.373 E0.0069
G1 X5.686 Y30.267 E0.0069
G1 X5.889 Y30.211 E0.0070
G1 X6.131 Y30.200 E0.0081
G1 X53.988 Y30.200 E1.5917
G1 X54.204 Y30.227 E0.0072
G1 X54.292 Y30.256 E0.0031
G1 X54.479 Y30.362 E0.0071
G1 X54.627 Y30.508 E0.0069
G1 X54.737 Y30.692 E0.0071
G1 X54.767 Y30.778 E0.0030
G1 X54.799 Y31.003 E0.0076
G1 X54.800 Y48.988 E0.5982
G1 X54.773 Y49.204 E0.0072
G1 X54.744 Y49.292 E0.0031
G1 X54.638 Y49.479 E0.0071
G1 X54.492 Y49.627 E0.0069
G1 X54.314 Y49.733 E0.0069
G1 X54.111 Y49.789 E0.0070
G1 X53.869 Y49.800 E0.0081
G1 X6.012 Y49.800 E1.5917
G1 X5.796 Y49.773 E0.0072
G1 X5.708 Y49.744 E0.0031
G1 X5.516 Y49.635 E0.0073
G1 X5.446 Y49.575 E0.0031
G1 X5.309 Y49.401 E0.0074
G1 X5.268 Y49.320 E0.0030
G1 X5.209 Y49.104 E0.0074
G1 X5.200 Y31.012 E0.6017
G1 X5.227 Y30.796 E0.0072
G1 X5.256 Y30.708 E0.0031
G1 X5.313 Y30.608 E0.0038
G0 F1300 X5.362 Y30.521
G10
G0 F3000 X6.400 Y31.407
;TYPE:SOLID-FILL
;WIDTH:0.400
G11
G1 F1300 X53.599 Y31.400 E1.5698
G1 X53.600 Y48.593 E0.5718
G1 X6.409 Y48.600 E1.5696
G1 X6.400 Y31.507 E0.5685
G0 F1300 X6.400 Y31.407
G10
G0 F3000 X6.679 Y32.000
G11
G1 F1300 X53.320 Y32.000 E1.5513
G1 X53.320 Y32.400 E0.0133
G1 X6.679 Y32.400 E1.5513
G1 X6.679 Y32.800 E0.0133
G1 X53.320 Y32.800 E1.5513
G1 X53.320 Y33.200 E0.0133
G1 X6.679 Y33.200 E1.5513
G1 X6.680 Y33.600 E0.0133
G1 X53.320 Y33.600 E1.5513
G1 X53.320 Y34.000 E0.0133
G1 X6.680 Y34.000 E1.5513
G1 X6.680 Y34.400 E0.0133
G1 X53.320 Y34.400 E1.5513
G1 X53.320 Y34.800 E0.0133
G1 X6.680 Y34.800 E1.5513
G1 X6.680 Y35.200 E0.0133
G1 X53.320 Y35.200 E1.5513
G1 X53.320 Y35.600 E0.0133
G1 X6.681 Y35.600 E1.5512
G1 X6.681 Y36.000 E0.0133
G1 X53.320 Y36.000 E1.5512
G1 X53.320 Y36.400 E0.0133
G1 X6.681 Y36.400 E1.5512
G1 X6.681 Y36.800 E0.0133
G1 X53.320 Y36.800 E1.5512
G1 X53.320 Y37.200 E0.0133
G1 X6.681 Y37.200 E1.5512
G1 X6.682 Y37.600 E0.0133
G1 X53.320 Y37.600 E1.5512
G1 X53.320 Y38.000 E0.0133
G1 X6.682 Y38.000 E1.5512
G1 X6.682 Y38.400 E0.0133
G1 X53.320 Y38.400 E1.5512
G1 X53.320 Y38.800 E0.0133
G1 X6.682 Y38.800 E1.5512
G1 X6.683 Y39.200 E0.0133
G1 X53.320 Y39.200 E1.5512
G1 X53.320 Y39.600 E0.0133
G1 X6.683 Y39.600 E1.5512
G1 X6.683 Y40.000 E0.0133
G1 X53.320 Y40.000 E1.5512
G1 X53.320 Y40.400 E0.0133
G1 X6.683 Y40.400 E1.5512
G1 X6.683 Y40.800 E0.0133
G1 X53.320 Y40.800 E1.5512
G1 X53.320 Y41.200 E0.0133
G1 X6.684 Y41.200 E1.5511
G1 X6.684 Y41.600 E0.0133
G1 X53.320 Y41.600 E1.5511
G1 X53.320 Y42.000 E0.0133
G1 X6.684 Y42.000 E1.5511
G1 X6.684 Y42.400 E0.0133
G1 X53.320 Y42.400 E1.5511
G1 X53.320 Y42.800 E0.0133
G1 X6.685 Y42.800 E1.5511
G1 X6.685 Y43.200 E0.0133
G1 X53.320 Y43.200 E1.5511
G1 X53.320 Y43.600 E0.0133
G1 X6.685 Y43.600 E1.5511
G1 X6.685 Y44.000 E0.0133
G1 X53.320 Y44.000 E1.5511
G1 X53.320 Y44.400 E0.0133
G1 X6.685 Y44.400 E1.5511
G1 X6.686 Y44.800 E0.0133
G1 X53.320 Y44.800 E1.5511
G1 X53.320 Y45.200 E0.0133
G1 X6.686 Y45.200 E1.5511
G1 X6.686 Y45.600 E0.0133
G1 X53.320 Y45.600 E1.5511
G1 X53.320 Y46.000 E0.0133
G1 X6.686 Y46.000 E1.5511
G1 X6.686 Y46.400 E0.0133
G1 X53.320 Y46.400 E1.5511
G1 X53.320 Y46.800 E0.0133
G1 X6.687 Y46.800 E1.5510
G1 X6.687 Y47.200 E0.0133
G1 X53.320 Y47.200 E1.5510
G1 X53.320 Y47.600 E0.0133
G1 X6.687 Y47.600 E1.5510
G1 X6.687 Y48.000 E0.0133
G1 X53.220 Y48.000 E1.5477
G0 F1300 X53.320 Y48.000
;PRINTING_TIME: 275
;REMAINING_TIME: 735
;LAYER:2
