; Created by Real3DFFF on 23:51:56 11.03.2023 using CLFFF (Christl)

;Sliced by ideaMaker 4.3.2.6470, 2023-03-11 13:25:29 UTC+0100
;Dimension: 326.000 326.000 311.550 0.500
;Plate Shape: 0
;Origin Center: 0
;Extruder Offset #1: 25.000 0.000
;Filament Diameter #1: 1.750
;Filament Diameter #2: 1.750
;Filament Compensation #1: 100.00
;Filament Compensation #2: 90.00
;Filament Density #1: 1240.00
;Filament Density #2: 1240.00
;Filament Type #1: PLA
;Filament Type #2: 
;Filament Name #1: [TEQStone] White PLA 1.75mm
;Filament Name #2: 
;Firmware: RepRapFirmware
;Bounding Box: 2.220 57.780 27.220 52.780 0.000 4.250
;Model Gap: 0.000
M92 E415.00000
M221 T0 S100.00
M140 S60.00
M104 T0 S200.00
M109 T0 S200.00
T0
M190 S60.00
G21
G90
M82
M107
if !move.axes[0].homed || !move.axes[1].homed || !move.axes[2].homed
G28
G1 Z0 F500
G92 E0
G1 X0.000000 Y0.000000 Z0.200000 F400.000000
G1 Z1.250000 F800.000000 ; lift nozzle
G1 X60.000000 Y-2.000000 F800.000000 ; lifted travel
G1 Z0.200000 F800.000000 ; lower nozzle
G1 X140.000000 E12.000000
G1 Z5 E15 F200
G92 E0
G1 F3000.0
; 0.5mm Nozzle
; M572 D0 S0.5
; 0.3mm Nozzle
; M572 D0 S0.72
M1001
;TOTAL_NUM: 1
;PRINTING_TIME: 0
;REMAINING_TIME: 1010
M83
;LAYER:0
;Z:0.250
;HEIGHT:0.250
M106 S0
M140 S63
;PRINTING: NON-OBJECT
;PRINTING_ID: -1
G10
G1 Z1.250000 F3000.000000 ; lift nozzle
G1 X5.166000 Y27.219000 F3000.000000 ; lifted travel
G1 Z5.000000 F3000.000000 ; lower nozzle
G1 Z0.250000 F900.000000
G1 X5.184000 Y27.317000 F3000.000000
;TYPE:SKIRT
;WIDTH:0.520
G11
G1 X5.723000 Y27.233000 E0.029500
G1 X6.032000 Y27.220000 E0.016700
G1 X54.034000 Y27.221000 E2.594400
G1 X54.612000 Y27.276000 E0.031400
G1 X55.078000 Y27.380000 E0.025800
G1 X55.702000 Y27.634000 E0.036400
G1 X56.023000 Y27.815000 E0.019900
G1 X56.336000 Y28.031000 E0.020600
G1 X56.737000 Y28.403000 E0.029600
G1 X57.021000 Y28.731000 E0.023400
G1 X57.180000 Y28.968000 E0.015400
G1 X57.347000 Y29.258000 E0.018100
G1 X57.529000 Y29.655000 E0.023600
G1 X57.707000 Y30.300000 E0.036200
G1 X57.777000 Y30.944000 E0.035000
G1 X57.780000 Y49.000000 E0.975900
G1 X57.757000 Y49.358000 E0.019400
G1 X57.712000 Y49.672000 E0.017100
G1 X57.547000 Y50.299000 E0.035000
G1 X57.338000 Y50.759000 E0.027300
G1 X57.185000 Y51.023000 E0.016500
G1 X56.969000 Y51.336000 E0.020600
G1 X56.597000 Y51.737000 E0.029600
G1 X56.269000 Y52.021000 E0.023400
G1 X55.796000 Y52.318000 E0.030200
G1 X55.405000 Y52.507000 E0.023500
G1 X54.816000 Y52.683000 E0.033200
G1 X54.277000 Y52.767000 E0.029500
G1 X53.968000 Y52.780000 E0.016700
G1 X5.951000 Y52.778000 E2.595200
G1 X5.340000 Y52.715000 E0.033200
G1 X4.922000 Y52.620000 E0.023200
G1 X4.298000 Y52.366000 E0.036400
G1 X3.970000 Y52.181000 E0.020400
G1 X3.533000 Y51.859000 E0.029300
G1 X3.101000 Y51.415000 E0.033500
G1 X2.906000 Y51.157000 E0.017500
G1 X2.573000 Y50.585000 E0.035800
G1 X2.396000 Y50.119000 E0.026900
G1 X2.316000 Y49.818000 E0.016800
G1 X2.248000 Y49.444000 E0.020500
G1 X2.229000 Y49.132000 E0.016900
G1 X2.220000 Y31.001000 E0.979900
G1 X2.243000 Y30.642000 E0.019400
G1 X2.288000 Y30.328000 E0.017100
G1 X2.453000 Y29.701000 E0.035000
G1 X2.662000 Y29.241000 E0.027300
G1 X2.815000 Y28.977000 E0.016500
G1 X3.031000 Y28.664000 E0.020600
G1 X3.403000 Y28.263000 E0.029600
G1 X3.731000 Y27.979000 E0.023400
G1 X4.204000 Y27.682000 E0.030200
G1 X4.595000 Y27.493000 E0.023500
G1 X5.089000 Y27.345000 E0.027900
G1 X5.184000 Y27.317000 F900.000000
G1 X5.267000 Y27.830000 F3000.000000
G1 X5.745000 Y27.753000 E0.026200
G1 X6.054000 Y27.740000 E0.016700
G1 X54.000000 E2.591400
G1 X54.291000 Y27.759000 E0.015800
G1 X54.545000 Y27.792000 E0.013800
G1 X54.963000 Y27.887000 E0.023200
G1 X55.501000 Y28.113000 E0.031500
G1 X55.728000 Y28.243000 E0.014100
G1 X56.041000 Y28.459000 E0.020600
G1 X56.379000 Y28.780000 E0.025200
G1 X56.626000 Y29.069000 E0.020500
G1 X56.743000 Y29.250000 E0.011600
G1 X56.874000 Y29.475000 E0.014100
G1 X57.056000 Y29.872000 E0.023600
G1 X57.204000 Y30.433000 E0.031400
G1 X57.259000 Y30.995000 E0.030500
G1 X57.260000 Y49.000000 E0.973100
G1 X57.241000 Y49.291000 E0.015800
G1 X57.208000 Y49.545000 E0.013800
G1 X57.072000 Y50.087000 E0.030200
G1 X56.887000 Y50.501000 E0.024500
G1 X56.757000 Y50.728000 E0.014100
G1 X56.541000 Y51.041000 E0.020600
G1 X56.220000 Y51.379000 E0.025200
G1 X55.931000 Y51.626000 E0.020500
G1 X55.525000 Y51.874000 E0.025700
G1 X55.182000 Y52.037000 E0.020500
G1 X54.733000 Y52.170000 E0.025300
G1 X54.255000 Y52.247000 E0.026200
G1 X53.946000 Y52.260000 E0.016700
G1 X6.000000 E2.591400
G1 X5.455000 Y52.208000 E0.029600
G1 X5.037000 Y52.113000 E0.023200
G1 X4.499000 Y51.887000 E0.031500
G1 X4.272000 Y51.757000 E0.014100
G1 X3.904000 Y51.495000 E0.024400
G1 X3.512000 Y51.096000 E0.030200
G1 X3.352000 Y50.890000 E0.014100
G1 X3.058000 Y50.399000 E0.030900
G1 X2.898000 Y49.982000 E0.024100
G1 X2.828000 Y49.725000 E0.014400
G1 X2.760000 Y49.351000 E0.020500
G1 X2.749000 Y49.132000 E0.011900
G1 X2.740000 Y31.001000 E0.979900
G1 X2.759000 Y30.709000 E0.015800
G1 X2.792000 Y30.455000 E0.013800
G1 X2.928000 Y29.913000 E0.030200
G1 X3.113000 Y29.499000 E0.024500
G1 X3.243000 Y29.272000 E0.014100
G1 X3.459000 Y28.959000 E0.020600
G1 X3.780000 Y28.621000 E0.025200
G1 X4.069000 Y28.374000 E0.020500
G1 X4.475000 Y28.126000 E0.025700
G1 X4.818000 Y27.963000 E0.020500
G1 X5.172000 Y27.858000 E0.020000
G1 X5.267000 Y27.830000 F900.000000
;PRINTING: wave_round_preform.stl
;PRINTING_ID: 0
G10
G1 Z1.250000 F3000.000000 ; lift nozzle
G1 X5.916000 Y30.805000 F3000.000000 ; lifted travel
G1 Z8.426813 F3000.000000 ; lower nozzle
;TYPE:WALL-INNER
;WIDTH:0.520
G11
G1 X6.125167 Y30.780013 Z8.441854 E0.001537
G1 X6.331659 Y30.780064 Z8.482430 E0.004683
G1 X6.735656 Y30.780166 Z8.554650 E0.007675
G1 X7.186772 Y30.780278 Z8.618932 E0.010520
G1 X7.601434 Y30.780382 Z8.663240 E0.008983
G1 X7.812134 Y30.780435 Z8.680475 E0.001761
G1 X8.097027 Y30.780506 Z8.698264 E0.010476
G1 X8.303900 Y30.780558 Z8.707281 E0.000334
G1 X8.590379 Y30.780630 Z8.714458 E0.004532
G1 X8.848891 Y30.780694 Z8.715759 E0.004044
G1 X9.152967 Y30.780770 Z8.711162 E0.004966
G1 X9.457075 Y30.780846 Z8.700101 E0.008077
G1 X9.833048 Y30.780940 Z8.677765 E0.008592
G1 X10.080034 Y30.781002 Z8.658033 E0.002965
G1 X10.383990 Y30.781078 Z8.628408 E0.004493
G1 X10.642803 Y30.781143 Z8.598663 E0.010930
G1 X11.044066 Y30.781243 Z8.544608 E0.011415
G1 X11.318568 Y30.781312 Z8.502257 E0.003723
G1 X12.026529 Y30.781489 Z8.373931 E0.024153
G1 X12.351676 Y30.781570 Z8.306255 E0.007463
G1 X12.651991 Y30.781646 Z8.239135 E0.008721
G1 X13.163644 Y30.781774 Z8.115106 E0.016910
G1 X13.469398 Y30.781850 Z8.035479 E0.013946
G1 X13.921009 Y30.781963 Z7.910811 E0.016461
G1 X14.128743 Y30.782015 Z7.850788 E0.009558
G1 X14.321509 Y30.782063 Z7.793656 E0.008885
G1 X14.913457 Y30.782211 Z7.610101 E0.018663
G1 X15.192799 Y30.782281 Z7.519523 E0.004702
G1 X15.399753 Y30.782333 Z7.450904 E0.009577
G1 X15.998403 Y30.782483 Z7.245757 E0.022273
G1 X16.227938 Y30.782540 Z7.164702 E0.008043
G1 X17.019121 Y30.782738 Z6.876626 E0.029890
G1 X17.334028 Y30.782817 Z6.758756 E0.006887
G1 X17.641539 Y30.782894 Z6.642203 E0.013946
G1 X17.989623 Y30.782981 Z6.508798 E0.015686
G1 X18.308328 Y30.783061 Z6.385522 E0.014271
G1 X18.966022 Y30.783225 Z6.128695 E0.028990
G1 X19.288734 Y30.783306 Z6.001961 E0.014108
G1 X19.948847 Y30.783471 Z5.742505 E0.028308
G1 X20.273634 Y30.783552 Z5.615229 E0.013784
G1 X20.932149 Y30.783717 Z5.359205 E0.027332
G1 X21.204756 Y30.783785 Z5.254389 E0.011196
G1 X21.548220 Y30.783871 Z5.123625 E0.013926
G1 X21.752890 Y30.783922 Z5.046499 E0.008230
G1 X22.207706 Y30.784036 Z4.877594 E0.012215
G1 X22.823829 Y30.784190 Z4.655252 E0.023739
G1 X23.112732 Y30.784263 Z4.553979 E0.010982
G1 X23.496738 Y30.784359 Z4.422717 E0.014362
G1 X23.948405 Y30.784472 Z4.273720 E0.009704
G1 X24.467544 Y30.784601 Z4.110485 E0.018618
G1 X24.901201 Y30.784710 Z3.981394 E0.010025
G1 X25.179531 Y30.784780 Z3.902318 E0.006269
G1 X25.537574 Y30.784869 Z3.805228 E0.008082
G1 X25.776790 Y30.784929 Z3.743416 E0.004743
G1 X26.031409 Y30.784993 Z3.680441 E0.005849
G1 X26.422650 Y30.785091 Z3.589603 E0.012919
G1 X26.882324 Y30.785206 Z3.492571 E0.008810
G1 X27.161929 Y30.785275 Z3.438953 E0.004005
G1 X27.486962 Y30.785357 Z3.382010 E0.004445
G1 X27.953601 Y30.785474 Z3.310858 E0.009314
G1 X28.461116 Y30.785601 Z3.248427 E0.009767
G1 X28.859063 Y30.785700 Z3.210963 E0.007601
G1 X29.146344 Y30.785772 Z3.190476 E0.004516
G1 X29.422905 Y30.785841 Z3.176123 E0.003492
G1 X29.874960 Y30.785954 Z3.164411 E0.008619
G1 X30.076055 Y30.786005 Z3.164042 E0.000792
G1 X30.390997 Y30.786083 Z3.169460 E0.009585
G1 X30.676546 Y30.786155 Z3.180578 E0.002815
G1 X31.042655 Y30.786246 Z3.203192 E0.005174
G1 X31.354089 Y30.786324 Z3.229568 E0.007886
G1 X31.760823 Y30.786426 Z3.273528 E0.007395
G1 X31.970223 Y30.786478 Z3.300219 E0.004312
G1 X32.310002 Y30.786563 Z3.349184 E0.009732
G1 X32.560250 Y30.786626 Z3.389581 E0.002490
G1 X32.794836 Y30.786685 Z3.430677 E0.007505
G1 X33.000346 Y30.786736 Z3.469170 E0.003769
G1 X33.297586 Y30.786810 Z3.528829 E0.009674
G1 X33.816701 Y30.786940 Z3.643802 E0.010930
G1 X34.033379 Y30.786995 Z3.695651 E0.006838
G1 X34.400510 Y30.787086 Z3.788407 E0.012474
G1 X34.671292 Y30.787154 Z3.860596 E0.004199
G1 X34.889658 Y30.787209 Z3.921037 E0.002579
G1 X35.148063 Y30.787273 Z3.995019 E0.004415
G1 X35.705406 Y30.787413 Z4.163092 E0.015712
G1 X36.006704 Y30.787488 Z4.258446 E0.004998
G1 X36.276344 Y30.787556 Z4.346249 E0.009948
G1 X36.763746 Y30.787678 Z4.510411 E0.011428
G1 X37.297302 Y30.787811 Z4.697323 E0.020560
G1 X37.735330 Y30.787921 Z4.855659 E0.010924
G1 X38.220492 Y30.788042 Z5.035405 E0.019433
G1 X38.584534 Y30.788133 Z5.172820 E0.014798
G1 X39.215039 Y30.788291 Z5.414880 E0.026230
G1 X39.595850 Y30.788386 Z5.562945 E0.016064
G1 X40.249917 Y30.788550 Z5.819210 E0.028181
G1 X40.635047 Y30.788646 Z5.970588 E0.015073
G1 X41.290896 Y30.788810 Z6.227843 E0.029101
G1 X41.671868 Y30.788905 Z6.376313 E0.017054
G1 X42.315135 Y30.789066 Z6.624099 E0.029186
G1 X42.639271 Y30.789147 Z6.747082 E0.014779
G1 X43.215049 Y30.789291 Z6.961519 E0.024140
G1 X43.560832 Y30.789378 Z7.087366 E0.011201
G1 X44.286605 Y30.789560 Z7.342875 E0.027780
G1 X44.522356 Y30.789619 Z7.423014 E0.006351
G1 X44.726485 Y30.789670 Z7.491154 E0.009460
G1 X45.208197 Y30.789790 Z7.646999 E0.018661
G1 X45.502477 Y30.789864 Z7.738529 E0.008259
G1 X45.884500 Y30.789959 Z7.852851 E0.009923
G1 X46.119242 Y30.790018 Z7.920428 E0.010797
G1 X46.479541 Y30.790108 Z8.019962 E0.011246
G1 X46.796330 Y30.790187 Z8.103064 E0.011786
G1 X46.999948 Y30.790238 Z8.154194 E0.005530
G1 X47.196957 Y30.790288 Z8.201901 E0.001100
G1 X47.435396 Y30.790347 Z8.257245 E0.006622
G1 X47.715350 Y30.790417 Z8.318764 E0.007894
G1 X48.063862 Y30.790504 Z8.389911 E0.013155
G1 X48.353371 Y30.790577 Z8.444242 E0.004549
G1 X48.654024 Y30.790652 Z8.495897 E0.004572
G1 X49.023818 Y30.790745 Z8.552511 E0.009755
G1 X49.342474 Y30.790824 Z8.594933 E0.008536
G1 X49.565653 Y30.790880 Z8.621018 E0.001814
G1 X50.126589 Y30.791020 Z8.672869 E0.017181
G1 X50.439542 Y30.791099 Z8.692943 E0.007435
G1 X50.676774 Y30.791158 Z8.703781 E0.002404
G1 X51.113255 Y30.791267 Z8.713547 E0.011769
G1 X51.489341 Y30.791361 Z8.711039 E0.011066
G1 X52.075839 Y30.791508 Z8.686132 E0.015590
G1 X52.518889 Y30.791619 Z8.649667 E0.010140
G1 X52.966178 Y30.791731 Z8.596841 E0.011727
G1 X53.190953 Y30.791787 Z8.564039 E0.007422
G1 X53.565157 Y30.791881 Z8.499919 E0.008364
G1 X53.817050 Y30.791944 Z8.449926 E0.007003
G1 X54.042000 Y30.792000 Z8.427910 E0.001968
G1 X54.203000 Y30.929000 Z8.424772 E0.000391
G1 X54.219505 Y40.084795 Z8.425353 E0.254539
G1 X54.219971 Y48.412471 Z8.425438 E0.234505
G1 X54.220000 Y48.936000 Z8.425444 E0.014742
G1 X54.159791 Y49.130521 Z8.423950 E0.001403
G1 X53.976599 Y49.211994 Z8.429993 E0.000580
G1 X53.548166 Y49.220000 Z8.505461 E0.008556
G1 X53.237794 Z8.559009 E0.005740
G1 X52.762992 Z8.625188 E0.013736
G1 X52.486053 Z8.655210 E0.005243
G1 X52.277531 Z8.673746 E0.001391
G1 X51.756910 Z8.705175 E0.018920
G1 X51.393640 Z8.714904 E0.007421
G1 X51.164740 Z8.716045 E0.005076
G1 X50.828340 Z8.710909 E0.013243
G1 X50.605381 Z8.703139 E0.006898
G1 X50.312392 Z8.687774 E0.009744
G1 X50.090639 Z8.672344 E0.004785
G1 X49.874266 Z8.654207 E0.006238
G1 X49.644661 Z8.631703 E0.003322
G1 X49.399804 Z8.604095 E0.010323
G1 X49.119111 Z8.567988 E0.004905
G1 X48.902241 Z8.536916 E0.004074
G1 X48.611613 Z8.491060 E0.012609
G1 X48.166046 Z8.411726 E0.011068
G1 X47.940898 Z8.367641 E0.009969
G1 X47.689723 Z8.315413 E0.006431
G1 X47.012808 Z8.159463 E0.028759
G1 X46.718631 Z8.085168 E0.007825
G1 X46.301394 Z7.973477 E0.015096
G1 X46.034214 Z7.898264 E0.003940
G1 X45.747832 Z7.814619 E0.013171
G1 X45.087257 Z7.610594 E0.030441
G1 X44.800423 Z7.517566 E0.013043
G1 X44.557372 Z7.436810 E0.003459
G1 X44.140862 Z7.294601 E0.017710
G1 X43.853849 Z7.194020 E0.013224
G1 X43.192016 Z6.955022 E0.030279
G1 X42.903601 Z6.848179 E0.006283
G1 X42.397219 Z6.657313 E0.022928
G1 X41.948524 Z6.485319 E0.013031
G1 X41.279745 Z6.225366 E0.029598
G1 X40.987693 Z6.110956 E0.012838
G1 X40.314523 Z5.846428 E0.029040
G1 X40.021525 Z5.731353 E0.012528
G1 X39.346266 Z5.467552 E0.028245
G1 X39.056464 Z5.355351 E0.011993
G1 X38.388665 Z5.100361 E0.026975
G1 X38.108662 Z4.995310 E0.011177
G1 X37.463535 Z4.758595 E0.024550
G1 X37.216876 Z4.670355 E0.009490
G1 X36.648650 Z4.472658 E0.021361
G1 X36.353872 Z4.373499 E0.008936
G1 X35.798670 Z4.193843 E0.015555
G1 X35.293648 Z4.039352 E0.017891
G1 X34.981741 Z3.948604 E0.010891
G1 X34.462185 Z3.806043 E0.014593
G1 X34.149656 Z3.725821 E0.004974
G1 X33.809985 Z3.643658 E0.004894
G1 X33.390589 Z3.549838 E0.008210
G1 X33.145234 Z3.499055 E0.003494
G1 X32.792780 Z3.431665 E0.010282
G1 X32.549597 Z3.389135 E0.005056
G1 X32.291707 Z3.347704 E0.004430
G1 X32.005355 Z3.306275 E0.002857
G1 X31.764012 Z3.275215 E0.003650
G1 X31.303990 Z3.226165 E0.009766
G1 X31.054102 Z3.205306 E0.002218
G1 X30.819046 Z3.189529 E0.006546
G1 X30.476851 Z3.173416 E0.005308
G1 X30.199920 Z3.166520 E0.004387
G1 X29.869969 Z3.165658 E0.005568
G1 X29.569267 Z3.171892 E0.004698
G1 X29.323586 Z3.181833 E0.001455
G1 X28.918328 Z3.207432 E0.008651
G1 X28.553204 Z3.239977 E0.006853
G1 X28.304730 Z3.267077 E0.004409
G1 X28.051957 Z3.298631 E0.004722
G1 X27.834568 Z3.328894 E0.004481
G1 X27.505821 Z3.379982 E0.010407
G1 X27.163748 Z3.439697 E0.005979
G1 X26.871065 Z3.495885 E0.004932
G1 X26.519971 Z3.569218 E0.011497
G1 X26.204075 Z3.640487 E0.005099
G1 X25.984692 Z3.692804 E0.007341
G1 X25.407525 Z3.840880 E0.013766
G1 X25.191980 Z3.899852 E0.005126
G1 X24.778066 Z4.018320 E0.009983
G1 X24.568584 Z4.080763 E0.006575
G1 X24.086125 Z4.230495 E0.017500
G1 X23.854729 Z4.305054 E0.007109
G1 X23.321734 Z4.482960 E0.015802
G1 X23.086126 Z4.564125 E0.008942
G1 X22.543358 Z4.756337 E0.021063
G1 X22.194975 Z4.883135 E0.011067
G1 X21.547969 Z5.124554 E0.026154
G1 X21.248168 Z5.238595 E0.012272
G1 X20.557320 Z5.505309 E0.028985
G1 X20.248074 Z5.625995 E0.013121
G1 X19.535357 Z5.905722 E0.030923
G1 X19.226194 Z6.027254 E0.013536
G1 X18.513566 Z6.306346 E0.031785
G1 X18.210008 Z6.424311 E0.013628
G1 X17.510200 Z6.692763 E0.031863
G1 X17.293385 Z6.774664 E0.009896
G1 X16.707648 Z6.992094 E0.023257
G1 X16.453409 Z7.084470 E0.003397
G1 X15.853454 Z7.296811 E0.027811
G1 X15.593546 Z7.386051 E0.012044
G1 X15.220222 Z7.510991 E0.009709
G1 X14.936614 Z7.603157 E0.013142
G1 X14.724776 Z7.670346 E0.004321
G1 X14.509611 Z7.737070 E0.004600
G1 X14.040541 Z7.876894 E0.013027
G1 X13.836786 Z7.935085 E0.009362
G1 X13.448664 Z8.041391 E0.009813
G1 X13.214019 Z8.102637 E0.008591
