;Sliced by ideaMaker 3.6.0.4300, 2020-06-09 20:51:35 UTC+0200
;Dimension: 326.000 326.000 311.350 0.400
;Plate Shape: 0
;Extruder Offset #1: 25.000 0.000
;Filament Diameter #1: 1.750
;Filament Diameter #2: 1.750
;Filament Compensation #1: 100.00
;Filament Compensation #2: 90.00
;Filament Density #1: 1240.00
;Filament Density #2: 1240.00
;Bounding Box: 127.318 198.682 127.318 198.682 0.000 7.250
;Model Gap: 0.000
M221 T0 S100.00
M140 S60.00
M104 T0 S200.00
M109 T0 S200.00
T0
M190 S60.00
G21
G90
M82
M107
if !move.axes[0].homed || !move.axes[1].homed || !move.axes[2].homed
  G28
G1 Z0 F500
G92 E0
G1 Z0.2 F400
G1 X60 Y-2 F800
G1 X140 Y-2 E12 F200
G1 Z5 E15 F200
G92 E0
G1 F3000.0
M117 Printing...
M1001
M83
;LAYER:0
;Z:0.250
;HEIGHT:0.250
M106 S0
M140 S63
G1 F2700 E-0.4500
G0 F3000 X128.450 Y128.912
G0 F900 Z0.250
G0 F3000 X128.520 Y128.982
;TYPE:SKIRT
;WIDTH:0.520
G1 F1500 E0.4500
G1 F900 X128.992 Y128.519 E0.0357
G1 X129.444 Y128.160 E0.0312
G1 X129.889 Y127.894 E0.0280
G1 X130.381 Y127.666 E0.0293
G1 X131.140 Y127.432 E0.0429
G1 X131.739 Y127.345 E0.0327
G1 X132.179 Y127.318 E0.0238
G1 X193.831 Y127.319 E3.3321
G1 X194.596 Y127.389 E0.0415
G1 X195.113 Y127.494 E0.0285
G1 X195.571 Y127.652 E0.0262
G1 X195.865 Y127.777 E0.0173
G1 X196.329 Y128.017 E0.0282
G1 X196.882 Y128.412 E0.0367
G1 X197.252 Y128.735 E0.0265
G1 X197.752 Y129.332 E0.0421
G1 X198.035 Y129.757 E0.0276
G1 X198.352 Y130.440 E0.0407
G1 X198.535 Y130.991 E0.0314
G1 X198.612 Y131.397 E0.0223
G1 X198.682 Y132.179 E0.0424
G1 X198.682 Y193.799 E3.3304
G1 X198.647 Y194.361 E0.0304
G1 X198.545 Y194.948 E0.0322
G1 X198.330 Y195.632 E0.0388
G1 X198.036 Y196.229 E0.0360
G1 X197.796 Y196.618 E0.0247
G1 X197.455 Y197.045 E0.0295
G1 X197.041 Y197.459 E0.0316
G1 X196.825 Y197.639 E0.0152
G1 X196.313 Y197.993 E0.0336
G1 X196.111 Y198.106 E0.0125
G1 X195.619 Y198.334 E0.0293
G1 X194.860 Y198.568 E0.0429
G1 X194.261 Y198.655 E0.0327
G1 X193.821 Y198.682 E0.0238
G1 X132.171 Y198.681 E3.3320
G1 X131.649 Y198.649 E0.0283
G1 X131.198 Y198.580 E0.0247
G1 X130.547 Y198.393 E0.0366
G1 X130.122 Y198.225 E0.0247
G1 X129.703 Y197.996 E0.0258
G1 X128.982 Y197.480 E0.0479
G1 X128.519 Y197.008 E0.0357
G1 X128.160 Y196.556 E0.0312
G1 X127.894 Y196.111 E0.0280
G1 X127.666 Y195.619 E0.0293
G1 X127.432 Y194.860 E0.0429
G1 X127.345 Y194.261 E0.0327
G1 X127.318 Y193.821 E0.0238
G1 X127.319 Y132.171 E3.3320
G1 X127.351 Y131.649 E0.0283
G1 X127.420 Y131.198 E0.0247
G1 X127.607 Y130.547 E0.0366
G1 X127.775 Y130.122 E0.0247
G1 X128.004 Y129.703 E0.0258
G1 X128.462 Y129.063 E0.0425
G0 F900 X128.520 Y128.982
G0 F3000 X128.884 Y129.353
G1 F900 X129.356 Y128.890 E0.0357
G1 X129.713 Y128.605 E0.0247
G1 X130.108 Y128.366 E0.0250
G1 X130.600 Y128.138 E0.0293
G1 X131.216 Y127.946 E0.0349
G1 X131.772 Y127.864 E0.0304
G1 X132.179 Y127.838 E0.0220
G1 X193.799 Y127.838 E3.3304
G1 X194.193 Y127.862 E0.0213
G1 X194.497 Y127.899 E0.0166
G1 X194.945 Y127.986 E0.0247
G1 X195.369 Y128.131 E0.0242
G1 X195.630 Y128.241 E0.0153
G1 X196.037 Y128.447 E0.0247
G1 X196.342 Y128.654 E0.0199
G1 X196.566 Y128.825 E0.0152
G1 X196.909 Y129.126 E0.0247
G1 X197.350 Y129.662 E0.0375
G1 X197.601 Y130.043 E0.0247
G1 X197.879 Y130.655 E0.0363
G1 X198.024 Y131.088 E0.0247
G1 X198.101 Y131.494 E0.0223
G1 X198.162 Y132.179 E0.0372
G1 X198.162 Y193.799 E3.3304
G1 X198.135 Y194.272 E0.0256
G1 X198.033 Y194.859 E0.0322
G1 X197.835 Y195.472 E0.0348
G1 X197.593 Y195.956 E0.0292
G1 X197.353 Y196.345 E0.0247
G1 X197.087 Y196.677 E0.0230
G1 X196.673 Y197.091 E0.0316
G1 X196.528 Y197.212 E0.0102
G1 X196.055 Y197.541 E0.0311
G1 X195.892 Y197.634 E0.0101
G1 X195.400 Y197.862 E0.0293
G1 X194.784 Y198.054 E0.0349
G1 X194.228 Y198.136 E0.0304
G1 X193.821 Y198.162 E0.0220
G1 X132.201 Y198.162 E3.3304
G1 X131.728 Y198.135 E0.0256
G1 X131.277 Y198.066 E0.0247
G1 X130.738 Y197.909 E0.0303
G1 X130.313 Y197.741 E0.0247
G1 X129.957 Y197.542 E0.0220
G1 X129.353 Y197.116 E0.0399
G1 X128.890 Y196.644 E0.0357
G1 X128.605 Y196.287 E0.0247
G1 X128.366 Y195.892 E0.0250
G1 X128.138 Y195.400 E0.0293
G1 X127.946 Y194.784 E0.0349
G1 X127.864 Y194.228 E0.0304
G1 X127.838 Y193.821 E0.0220
G1 X127.838 Y132.201 E3.3304
G1 X127.865 Y131.728 E0.0256
G1 X127.934 Y131.277 E0.0247
G1 X128.091 Y130.738 E0.0303
G1 X128.259 Y130.313 E0.0247
G1 X128.458 Y129.957 E0.0220
G1 X128.827 Y129.434 E0.0346
G0 F900 X128.884 Y129.353
G1 F2700 E-0.4500
G0 F3000 X131.955 Y131.989
;TYPE:WALL-INNER
;WIDTH:0.520
G1 F1500 E0.4500
G1 F900 X132.054 Y131.908 E0.0069
G1 X132.227 Y131.878 E0.0095
G1 X193.751 Y131.878 E3.3252
G1 X193.901 Y131.896 E0.0082
G1 X194.032 Y131.972 E0.0082
G1 X194.077 Y132.031 E0.0040
G1 X194.106 Y132.102 E0.0041
G1 X194.122 Y132.228 E0.0069
G1 X194.122 Y193.768 E3.3261
G1 X194.105 Y193.907 E0.0076
G1 X194.030 Y194.034 E0.0080
G1 X193.912 Y194.105 E0.0074
G1 X193.773 Y194.122 E0.0076
G1 X132.232 Y194.122 E3.3262
G1 X132.054 Y194.088 E0.0098
G1 X131.989 Y194.045 E0.0042
G1 X131.908 Y193.946 E0.0069
G1 X131.878 Y193.773 E0.0095
G1 X131.878 Y132.232 E3.3262
G1 X131.908 Y132.076 E0.0086
G0 F900 X131.912 Y132.054
G0 F900 X131.955 Y131.989
G1 F2700 E-0.4500
G0 F3000 X131.554 Y131.651
;TYPE:WALL-OUTER
;WIDTH:0.520
G1 F1500 E0.4500
G1 F900 X131.715 Y131.502 E0.0119
G1 X131.834 Y131.435 E0.0074
G1 X131.963 Y131.387 E0.0074
G1 X132.195 Y131.358 E0.0126
G1 X193.783 Y131.358 E3.3287
G1 X194.036 Y131.389 E0.0138
G1 X194.233 Y131.472 E0.0116
G1 X194.403 Y131.601 E0.0115
G1 X194.532 Y131.771 E0.0115
G1 X194.613 Y131.968 E0.0115
G1 X194.642 Y132.195 E0.0124
G1 X194.642 Y193.789 E3.3290
G1 X194.628 Y193.966 E0.0096
G1 X194.592 Y194.098 E0.0074
G1 X194.488 Y194.298 E0.0122
G1 X194.399 Y194.403 E0.0074
G1 X194.290 Y194.495 E0.0077
G1 X194.166 Y194.565 E0.0077
G1 X194.037 Y194.613 E0.0074
G1 X193.805 Y194.642 E0.0126
G1 X132.211 Y194.642 E3.3290
G1 X132.039 Y194.628 E0.0093
G1 X131.831 Y194.563 E0.0118
G1 X131.651 Y194.446 E0.0116
G1 X131.502 Y194.285 E0.0119
G1 X131.435 Y194.166 E0.0074
G1 X131.387 Y194.037 E0.0074
G1 X131.358 Y193.805 E0.0126
G1 X131.358 Y132.211 E3.3290
G1 X131.372 Y132.039 E0.0093
G1 X131.437 Y131.831 E0.0118
G1 X131.500 Y131.735 E0.0062
G0 F900 X131.554 Y131.651
G1 F2700 E-0.4500
G0 F3000 X155.343 Y157.419
;TYPE:WALL-INNER
;WIDTH:0.520
G1 F1500 E0.4500
G1 F900 X154.465 Y158.788 E0.0879
G1 X154.323 Y160.362 E0.0854
G1 X154.811 Y161.934 E0.0890
G1 X155.716 Y163.445 E0.0952
G1 X156.794 Y164.802 E0.0937
G1 X157.551 Y166.076 E0.0801
G1 X158.079 Y167.320 E0.0730
G1 X158.861 Y168.518 E0.0773
G1 X159.827 Y169.514 E0.0750
G1 X160.946 Y170.268 E0.0729
G1 X162.177 Y170.737 E0.0712
G1 X163.470 Y170.898 E0.0704
G1 X164.763 Y170.737 E0.0704
G1 X165.994 Y170.268 E0.0712
G1 X167.115 Y169.514 E0.0730
G1 X168.079 Y168.518 E0.0749
G1 X168.861 Y167.320 E0.0773
G1 X169.391 Y166.074 E0.0732
G1 X170.108 Y164.856 E0.0764
G1 X171.225 Y163.444 E0.0973
G1 X172.129 Y161.934 E0.0951
G1 X172.618 Y160.362 E0.0890
G1 X172.476 Y158.788 E0.0854
G1 X171.598 Y157.419 E0.0879
G1 X170.119 Y156.390 E0.0974
G1 X168.187 Y155.675 E0.1113
G1 X165.919 Y155.249 E0.1247
G1 X163.470 Y155.107 E0.1326
G1 X161.021 Y155.249 E0.1326
G1 X158.754 Y155.675 E0.1247
G1 X156.822 Y156.390 E0.1113
G1 X155.425 Y157.362 E0.0920
G0 F900 X155.343 Y157.419
G1 F2700 E-0.4500
G0 F3000 X155.725 Y157.787
;TYPE:WALL-OUTER
;WIDTH:0.520
G1 F1500 E0.4500
G1 F900 X154.971 Y158.962 E0.0755
G1 X154.850 Y160.306 E0.0729
G1 X155.289 Y161.720 E0.0800
G1 X156.144 Y163.148 E0.0900
G1 X157.223 Y164.506 E0.0937
G1 X158.016 Y165.840 E0.0839
G1 X158.540 Y167.074 E0.0725
G1 X159.269 Y168.192 E0.0721
G1 X160.162 Y169.113 E0.0693
G1 X161.187 Y169.803 E0.0668
G1 X162.304 Y170.229 E0.0646
G1 X163.470 Y170.374 E0.0635
G1 X164.636 Y170.229 E0.0635
G1 X165.753 Y169.803 E0.0646
G1 X166.779 Y169.113 E0.0668
G1 X167.671 Y168.192 E0.0693
G1 X168.400 Y167.074 E0.0721
G1 X168.926 Y165.839 E0.0726
G1 X169.678 Y164.561 E0.0801
G1 X170.796 Y163.148 E0.0974
G1 X171.651 Y161.720 E0.0900
G1 X172.091 Y160.306 E0.0800
G1 X171.970 Y158.962 E0.0729
G1 X171.216 Y157.787 E0.0755
G1 X169.876 Y156.855 E0.0882
G1 X168.048 Y156.178 E0.1054
G1 X165.856 Y155.766 E0.1205
G1 X163.470 Y155.628 E0.1292
G1 X161.084 Y155.766 E0.1292
G1 X158.893 Y156.178 E0.1205
G1 X157.065 Y156.855 E0.1054
G1 X155.807 Y157.730 E0.0828
G0 F900 X155.725 Y157.787
G1 F2700 E-0.4500
G0 F3000 X154.961 Y157.051
;TYPE:SOLID-FILL
;WIDTH:0.520
G1 F1500 E0.4500
G1 F900 X153.959 Y158.614 E0.1003
G1 X153.795 Y160.418 E0.0979
G1 X154.333 Y162.148 E0.0979
G1 X155.288 Y163.741 E0.1004
G1 X156.368 Y165.103 E0.0939
G1 X157.086 Y166.310 E0.0759
G1 X157.619 Y167.566 E0.0737
G1 X158.453 Y168.844 E0.0825
G1 X159.491 Y169.914 E0.0806
G1 X160.706 Y170.732 E0.0792
G1 X162.051 Y171.245 E0.0778
G1 X163.470 Y171.422 E0.0773
G1 X164.889 Y171.245 E0.0773
G1 X166.234 Y170.732 E0.0778
G1 X167.451 Y169.914 E0.0793
G1 X168.487 Y168.844 E0.0805
G1 X169.321 Y167.566 E0.0825
G1 X169.856 Y166.309 E0.0738
G1 X170.538 Y165.149 E0.0727
G1 X171.653 Y163.740 E0.0971
G1 X172.607 Y162.148 E0.1003
G1 X173.146 Y160.418 E0.0979
G1 X172.982 Y158.614 E0.0979
G1 X171.980 Y157.051 E0.1003
G1 X170.361 Y155.926 E0.1066
G1 X168.327 Y155.173 E0.1172
G1 X165.983 Y154.731 E0.1289
G1 X163.470 Y154.587 E0.1360
G1 X160.957 Y154.731 E0.1360
G1 X158.614 Y155.173 E0.1289
G1 X156.580 Y155.926 E0.1172
G1 X155.043 Y156.994 E0.1012
G0 F900 X154.961 Y157.051
G1 F2700 E-0.4500
G0 F3000 X132.398 Y132.398
G1 F1500 E0.4500
G1 F900 X193.602 Y132.398 E3.3079
G1 X193.602 Y193.602 E3.3079
G1 X132.398 Y193.602 E3.3079
G1 X132.398 Y132.498 E3.3025
G0 F900 X132.398 Y132.398
G0 F3000 X132.860 Y132.502
G1 F900 X132.860 Y193.498 E3.2967
G0 F3000 X133.380 Y193.498
G1 F900 X133.380 Y132.502 E3.2967
G0 F3000 X133.900 Y132.502
G1 F900 X133.900 Y193.498 E3.2967
G0 F3000 X134.420 Y193.498
G1 F900 X134.420 Y132.502 E3.2967
G0 F3000 X134.940 Y132.502
G1 F900 X134.940 Y193.498 E3.2967
G0 F3000 X135.460 Y193.498
G1 F900 X135.460 Y132.502 E3.2967
G0 F3000 X135.980 Y132.502
G1 F900 X135.980 Y193.498 E3.2967
G0 F3000 X136.500 Y193.498
G1 F900 X136.500 Y132.502 E3.2967
G0 F3000 X137.020 Y132.502
G1 F900 X137.020 Y193.498 E3.2967
G0 F3000 X137.540 Y193.498
G1 F900 X137.540 Y132.502 E3.2967
G0 F3000 X138.060 Y132.502
G1 F900 X138.060 Y193.498 E3.2967
G0 F3000 X138.580 Y193.498
G1 F900 X138.580 Y132.502 E3.2967
G0 F3000 X139.100 Y132.502
G1 F900 X139.100 Y193.498 E3.2967
G0 F3000 X139.620 Y193.498
G1 F900 X139.620 Y132.502 E3.2967
G0 F3000 X140.140 Y132.502
G1 F900 X140.140 Y193.498 E3.2967
G0 F3000 X140.660 Y193.498
G1 F900 X140.660 Y132.502 E3.2967
G0 F3000 X141.180 Y132.502
G1 F900 X141.180 Y193.498 E3.2967
G0 F3000 X141.700 Y193.498
G1 F900 X141.700 Y132.502 E3.2967
G0 F3000 X142.220 Y132.502
G1 F900 X142.220 Y193.498 E3.2967
G0 F3000 X142.740 Y193.498
G1 F900 X142.740 Y132.502 E3.2967
G0 F3000 X143.260 Y132.502
G1 F900 X143.260 Y193.498 E3.2967
G0 F3000 X143.780 Y193.498
G1 F900 X143.780 Y132.502 E3.2967
G0 F3000 X144.300 Y132.502
G1 F900 X144.300 Y193.498 E3.2967
G0 F3000 X144.820 Y193.498
G1 F900 X144.820 Y132.502 E3.2967
G0 F3000 X145.340 Y132.502
G1 F900 X145.340 Y193.498 E3.2967
G0 F3000 X145.860 Y193.498
G1 F900 X145.860 Y132.502 E3.2967
G0 F3000 X146.380 Y132.502
G1 F900 X146.380 Y193.498 E3.2967
G0 F3000 X146.900 Y193.498
G1 F900 X146.900 Y132.502 E3.2967
G0 F3000 X147.420 Y132.502
G1 F900 X147.420 Y193.498 E3.2967
G0 F3000 X147.940 Y193.498
G1 F900 X147.940 Y132.502 E3.2967
G0 F3000 X148.460 Y132.502
G1 F900 X148.460 Y193.498 E3.2967
G0 F3000 X148.980 Y193.498
G1 F900 X148.980 Y132.502 E3.2967
G0 F3000 X149.500 Y132.502
G1 F900 X149.500 Y193.498 E3.2967
G0 F3000 X150.020 Y193.498
G1 F900 X150.020 Y132.502 E3.2967
G0 F3000 X150.540 Y132.502
G1 F900 X150.540 Y193.498 E3.2967
G0 F3000 X151.060 Y193.498
G1 F900 X151.060 Y132.502 E3.2967
G0 F3000 X151.580 Y132.502
G1 F900 X151.580 Y193.498 E3.2967
G0 F3000 X152.100 Y193.498
G1 F900 X152.100 Y132.502 E3.2967
G0 F3000 X152.620 Y132.502
G1 F900 X152.620 Y193.498 E3.2967
G0 F3000 X153.140 Y193.498
G1 F900 X153.140 Y132.502 E3.2967
G0 F3000 X153.660 Y132.502
G1 F900 X153.660 Y193.498 E3.2967
G0 F3000 X154.180 Y193.498
G1 F900 X154.180 Y162.008 E1.7020
G1 F2700 E-0.4500
G0 F3000 X154.700 Y162.963
G1 F1500 E0.4500
G1 F900 X154.700 Y193.498 E1.6503
G0 F3000 X155.220 Y193.498
G1 F900 X155.220 Y163.823 E1.6039
G1 F2700 E-0.4500
G0 F3000 X155.740 Y164.479
G1 F1500 E0.4500
G1 F900 X155.740 Y193.498 E1.5684
G0 F3000 X156.260 Y193.498
G1 F900 X156.260 Y165.134 E1.5330
G1 F2700 E-0.4500
G0 F3000 X156.780 Y165.998
G1 F1500 E0.4500
G1 F900 X156.780 Y193.498 E1.4863
G0 F3000 X157.300 Y193.498
G1 F900 X157.300 Y167.081 E1.4278
G1 F2700 E-0.4500
G0 F3000 X157.820 Y168.065
G1 F1500 E0.4500
G1 F900 X157.820 Y193.498 E1.3746
G0 F3000 X158.340 Y193.498
G1 F900 X158.340 Y168.862 E1.3315
G1 F2700 E-0.4500
G0 F3000 X158.860 Y169.413
G1 F1500 E0.4500
G1 F900 X158.860 Y193.498 E1.3017
G0 F3000 X159.380 Y193.498
G1 F900 X159.380 Y169.949 E1.2728
G1 F2700 E-0.4500
G0 F3000 X159.900 Y170.315
G1 F1500 E0.4500
G1 F900 X159.900 Y193.498 E1.2530
G0 F3000 X160.420 Y193.498
G1 F900 X160.420 Y170.665 E1.2341
G0 F3000 X160.940 Y170.933
G1 F900 X160.940 Y193.498 E1.2196
G0 F3000 X161.460 Y193.498
G1 F900 X161.460 Y171.132 E1.2088
G0 F3000 X161.980 Y171.330
G1 F900 X161.980 Y193.498 E1.1981
G0 F3000 X162.500 Y193.498
G1 F900 X162.500 Y171.407 E1.1940
G0 F3000 X163.020 Y171.471
G1 F900 X163.020 Y193.498 E1.1905
G0 F3000 X163.540 Y193.498
G1 F900 X163.540 Y171.518 E1.1880
G0 F3000 X164.060 Y171.453
G1 F900 X164.060 Y193.498 E1.1915
G0 F3000 X164.580 Y193.498
G1 F900 X164.580 Y171.388 E1.1950
G0 F3000 X165.100 Y171.276
G1 F900 X165.100 Y193.498 E1.2010
G0 F3000 X165.620 Y193.498
G1 F900 X165.620 Y171.077 E1.2118
G0 F3000 X166.140 Y170.879
G1 F900 X166.140 Y193.498 E1.2225
G0 F3000 X166.660 Y193.498
G1 F900 X166.660 Y170.570 E1.2392
G1 F2700 E-0.4500
G0 F3000 X167.180 Y170.221
G1 F1500 E0.4500
G1 F900 X167.180 Y193.498 E1.2581
G0 F3000 X167.700 Y193.498
G1 F900 X167.700 Y169.806 E1.2805
G1 F2700 E-0.4500
G0 F3000 X168.220 Y169.269
G1 F1500 E0.4500
G1 F900 X168.220 Y193.498 E1.3095
G0 F3000 X168.740 Y193.498
G1 F900 X168.740 Y168.646 E1.3432
G1 F2700 E-0.4500
G0 F3000 X169.260 Y167.849
G1 F1500 E0.4500
G1 F900 X169.260 Y193.498 E1.3863
G0 F3000 X169.780 Y193.498
G1 F900 X169.780 Y166.754 E1.4455
G1 F2700 E-0.4500
G0 F3000 X170.300 Y165.759
G1 F1500 E0.4500
G1 F900 X170.300 Y193.498 E1.4992
G0 F3000 X170.820 Y193.498
G1 F900 X170.820 Y164.961 E1.5424
G1 F2700 E-0.4500
G0 F3000 X171.340 Y164.303
G1 F1500 E0.4500
G1 F900 X171.340 Y193.498 E1.5779
G0 F3000 X171.860 Y193.498
G1 F900 X171.860 Y163.597 E1.6161
G1 F2700 E-0.4500
G0 F3000 X172.380 Y162.729
G1 F1500 E0.4500
G1 F900 X172.380 Y193.498 E1.6630
G0 F3000 X172.900 Y193.498
G1 F900 X172.900 Y161.557 E1.7263
G1 F2700 E-0.4500
G0 F3000 X172.900 Y158.293
G1 F1500 E0.4500
G1 F900 X172.900 Y132.502 E1.3939
G0 F3000 X172.380 Y132.502
G1 F900 X172.380 Y157.482 E1.3501
G1 F2700 E-0.4500
G0 F3000 X171.860 Y156.840
G1 F1500 E0.4500
G1 F900 X171.860 Y132.502 E1.3154
G0 F3000 X171.340 Y132.502
G1 F900 X171.340 Y156.479 E1.2959
G1 F2700 E-0.4500
G0 F3000 X170.820 Y156.118
G1 F1500 E0.4500
G1 F900 X170.820 Y132.502 E1.2764
G0 F3000 X170.300 Y132.502
G1 F900 X170.300 Y155.792 E1.2588
G0 F3000 X169.780 Y155.599
G1 F900 X169.780 Y132.502 E1.2483
G0 F3000 X169.260 Y132.502
G1 F900 X169.260 Y155.407 E1.2380
G0 F3000 X168.740 Y155.214
G1 F900 X168.740 Y132.502 E1.2275
G0 F3000 X168.220 Y132.502
G1 F900 X168.220 Y155.046 E1.2185
G0 F3000 X167.700 Y154.948
G1 F900 X167.700 Y132.502 E1.2132
