;Sliced by ideaMaker 3.6.0.4300, 2020-06-04 22:49:31 UTC+0200
;Dimension: 326.000 326.000 311.350 0.400
;Plate Shape: 0
;Extruder Offset #1: 25.000 0.000
;Filament Diameter #1: 1.750
;Filament Diameter #2: 1.750
;Filament Compensation #1: 100.00
;Filament Compensation #2: 90.00
;Filament Density #1: 1240.00
;Filament Density #2: 1240.00
;Bounding Box: 127.820 198.180 127.820 198.180 0.000 10.450
;Model Gap: 0.000
M221 T0 S100.00
M140 S60.00
M104 T0 S200.00
M109 T0 S200.00
T0
M190 S60.00
G21
G90
M82
M107
if !move.axes[0].homed || !move.axes[1].homed || !move.axes[2].homed
G28
G1 Z0 F500
G92 E0
G1 Z0.2 F400
G1 X60 Y-2 F800
G1 X140 Y-2 E12 F200
G1 Z5 E15 F200
G92 E0
G1 F3000.0
M117 Printing...
M1001
M83
;LAYER:0
;Z:0.250
;HEIGHT:0.250
M106 S0
M140 S63
G1 F2700 E-0.4500
G0 F3000 X129.037 Y128.690
G0 F900 Z0.250
G0 F3000 X129.107 Y128.760
;TYPE:SKIRT
;WIDTH:0.520
G1 F1500 E0.4500
G1 F900 X129.468 Y128.480 E0.0247
G1 X129.990 Y128.181 E0.0325
G1 X130.484 Y127.990 E0.0286
G1 X130.927 Y127.882 E0.0246
G1 X131.600 Y127.820 E0.0365
G1 X194.436 Y127.821 E3.3961
G1 X194.963 Y127.863 E0.0286
G1 X195.410 Y127.958 E0.0247
G1 X195.976 Y128.165 E0.0326
G1 X196.378 Y128.380 E0.0246
G1 X196.808 Y128.688 E0.0286
G1 X197.192 Y129.053 E0.0286
G1 X197.560 Y129.528 E0.0325
G1 X197.819 Y129.990 E0.0286
G1 X197.988 Y130.414 E0.0247
G1 X198.131 Y131.006 E0.0329
G1 X198.180 Y131.600 E0.0322
G1 X198.180 Y194.400 E3.3942
G1 X198.137 Y194.963 E0.0305
G1 X198.042 Y195.410 E0.0247
G1 X197.864 Y195.910 E0.0287
G1 X197.620 Y196.378 E0.0285
G1 X197.265 Y196.865 E0.0326
G1 X196.893 Y197.240 E0.0285
G1 X196.532 Y197.520 E0.0247
G1 X196.010 Y197.819 E0.0325
G1 X195.516 Y198.010 E0.0286
G1 X195.073 Y198.118 E0.0246
G1 X194.400 Y198.180 E0.0365
G1 X131.600 Y198.180 E3.3942
G1 X131.037 Y198.137 E0.0305
G1 X130.590 Y198.042 E0.0247
G1 X130.090 Y197.864 E0.0287
G1 X129.622 Y197.620 E0.0285
G1 X129.135 Y197.265 E0.0326
G1 X128.760 Y196.893 E0.0285
G1 X128.480 Y196.532 E0.0247
G1 X128.181 Y196.010 E0.0325
G1 X127.990 Y195.516 E0.0286
G1 X127.882 Y195.073 E0.0246
G1 X127.820 Y194.400 E0.0365
G1 X127.820 Y131.600 E3.3942
G1 X127.863 Y131.037 E0.0305
G1 X127.958 Y130.590 E0.0247
G1 X128.136 Y130.090 E0.0287
G1 X128.380 Y129.622 E0.0285
G1 X128.735 Y129.135 E0.0326
G1 X129.037 Y128.831 E0.0232
G0 F900 X129.107 Y128.760
G0 F3000 X129.426 Y129.171
G1 F900 X129.787 Y128.891 E0.0247
G1 X130.183 Y128.664 E0.0247
G1 X130.607 Y128.495 E0.0247
G1 X131.050 Y128.387 E0.0246
G1 X131.600 Y128.340 E0.0298
G1 X194.400 Y128.340 E3.3942
G1 X194.855 Y128.372 E0.0247
G1 X195.302 Y128.467 E0.0247
G1 X195.731 Y128.624 E0.0247
G1 X196.133 Y128.839 E0.0246
G1 X196.502 Y129.108 E0.0247
G1 X196.829 Y129.426 E0.0247
G1 X197.109 Y129.787 E0.0247
G1 X197.336 Y130.183 E0.0247
G1 X197.505 Y130.607 E0.0247
G1 X197.613 Y131.050 E0.0246
G1 X197.660 Y131.600 E0.0298
G1 X197.660 Y194.400 E3.3942
G1 X197.628 Y194.855 E0.0247
G1 X197.533 Y195.302 E0.0247
G1 X197.376 Y195.731 E0.0247
G1 X197.161 Y196.133 E0.0246
G1 X196.892 Y196.502 E0.0247
G1 X196.574 Y196.829 E0.0247
G1 X196.213 Y197.109 E0.0247
G1 X195.817 Y197.336 E0.0247
G1 X195.393 Y197.505 E0.0247
G1 X194.950 Y197.613 E0.0246
G1 X194.400 Y197.660 E0.0298
G1 X131.600 Y197.660 E3.3942
G1 X131.145 Y197.628 E0.0247
G1 X130.698 Y197.533 E0.0247
G1 X130.269 Y197.376 E0.0247
G1 X129.867 Y197.161 E0.0246
G1 X129.498 Y196.892 E0.0247
G1 X129.171 Y196.574 E0.0247
G1 X128.891 Y196.213 E0.0247
G1 X128.664 Y195.817 E0.0247
G1 X128.495 Y195.393 E0.0247
G1 X128.387 Y194.950 E0.0246
G1 X128.340 Y194.400 E0.0298
G1 X128.340 Y131.600 E3.3942
G1 X128.372 Y131.145 E0.0247
G1 X128.467 Y130.698 E0.0247
G1 X128.624 Y130.269 E0.0247
G1 X128.839 Y129.867 E0.0246
G1 X129.108 Y129.498 E0.0247
G1 X129.357 Y129.242 E0.0193
G0 F900 X129.426 Y129.171
G1 F2700 E-0.4500
G0 F3000 X132.380 Y132.380
;TYPE:WALL-INNER
;WIDTH:0.520
G1 F1500 E0.4500
G1 F900 X193.620 Y132.380 E3.3099
G1 X193.620 Y193.620 E3.3099
G1 X132.380 Y193.620 E3.3099
G1 X132.380 Y132.480 E3.3045
G0 F900 X132.380 Y132.380
G1 F2700 E-0.4500
G0 F3000 X131.860 Y131.860
;TYPE:WALL-OUTER
;WIDTH:0.520
G1 F1500 E0.4500
G1 F900 X194.140 Y131.860 E3.3661
G1 X194.140 Y194.140 E3.3661
G1 X131.860 Y194.140 E3.3661
G1 X131.860 Y131.960 E3.3607
G0 F900 X131.860 Y131.860
G1 F2700 E-0.4500
G0 F3000 X156.739 Y155.317
;TYPE:WALL-INNER
;WIDTH:0.520
G1 F1500 E0.4500
G1 F900 X157.714 Y157.244 E0.1167
G1 X157.840 Y157.180 E0.0076
G1 X158.282 Y157.813 E0.0417
G1 X157.263 Y158.833 E0.0779
G1 X156.614 Y160.105 E0.0772
G1 X155.190 Y159.642 E0.0809
G1 X153.768 Y159.426 E0.0777
G1 X153.210 Y162.999 E0.1955
G1 X153.756 Y166.576 E0.1956
G1 X155.181 Y166.360 E0.0779
G1 X156.614 Y165.895 E0.0814
G1 X157.263 Y167.167 E0.0772
G1 X158.282 Y168.187 E0.0779
G1 X157.842 Y168.818 E0.0416
G1 X157.715 Y168.754 E0.0077
G1 X156.745 Y170.673 E0.1162
G1 X159.973 Y172.310 E0.1956
G1 X163.547 Y172.895 E0.1957
G1 X163.779 Y171.463 E0.0784
G1 X163.779 Y169.966 E0.0809
G1 X165.190 Y169.743 E0.0772
G1 X166.462 Y169.095 E0.0772
G1 X167.342 Y170.306 E0.0809
G1 X168.365 Y171.317 E0.0777
G1 X170.918 Y168.755 E0.1955
G1 X172.582 Y165.532 E0.1960
G1 X171.258 Y164.864 E0.0802
G1 X169.865 Y164.411 E0.0792
G1 X170.088 Y163.000 E0.0772
G1 X169.865 Y161.589 E0.0772
G1 X171.289 Y161.127 E0.0809
G1 X172.579 Y160.462 E0.0784
G1 X170.919 Y157.246 E0.1956
G1 X168.374 Y154.674 E0.1956
G1 X167.342 Y155.694 E0.0784
G1 X166.462 Y156.905 E0.0809
G1 X165.190 Y156.257 E0.0772
G1 X163.779 Y156.034 E0.0772
G1 X163.779 Y154.537 E0.0809
G1 X163.550 Y153.116 E0.0778
G1 X159.975 Y153.689 E0.1957
G1 X156.828 Y155.273 E0.1904
G0 F900 X156.739 Y155.317
G1 F2700 E-0.4500
G0 F3000 X157.438 Y155.547
;TYPE:WALL-OUTER
;WIDTH:0.520
G1 F1500 E0.4500
G1 F900 X157.943 Y156.545 E0.0605
G1 X158.008 Y156.512 E0.0039
G1 X158.958 Y157.873 E0.0897
G1 X157.689 Y159.142 E0.0970
G1 X156.876 Y160.737 E0.0968
G1 X155.070 Y160.150 E0.1026
G1 X154.202 Y160.018 E0.0475
G1 X153.736 Y163.000 E0.1631
G1 X154.192 Y165.984 E0.1632
G1 X155.061 Y165.852 E0.0475
G1 X156.876 Y165.263 E0.1031
G1 X157.689 Y166.858 E0.0968
G1 X158.958 Y168.127 E0.0970
G1 X158.011 Y169.484 E0.0894
G1 X157.945 Y169.451 E0.0040
G1 X157.443 Y170.444 E0.0601
G1 X160.136 Y171.810 E0.1632
G1 X163.117 Y172.298 E0.1633
G1 X163.259 Y171.421 E0.0480
G1 X163.259 Y169.522 E0.1026
G1 X165.027 Y169.242 E0.0967
G1 X166.622 Y168.430 E0.0967
G1 X167.738 Y169.966 E0.1026
G1 X168.362 Y170.583 E0.0474
G1 X170.493 Y168.445 E0.1632
G1 X171.879 Y165.760 E0.1633
G1 X171.059 Y165.346 E0.0496
G1 X169.282 Y164.768 E0.1010
G1 X169.562 Y163.000 E0.0967
G1 X169.282 Y161.232 E0.0967
G1 X171.088 Y160.645 E0.1026
G1 X171.878 Y160.238 E0.0480
G1 X170.493 Y157.555 E0.1632
G1 X168.370 Y155.409 E0.1632
G1 X167.738 Y156.034 E0.0480
G1 X166.622 Y157.570 E0.1026
G1 X165.027 Y156.758 E0.0967
G1 X163.259 Y156.478 E0.0967
G1 X163.259 Y154.579 E0.1026
G1 X163.119 Y153.712 E0.0475
G1 X160.137 Y154.190 E0.1632
G1 X157.527 Y155.503 E0.1579
G0 F900 X157.438 Y155.547
G1 F2700 E-0.4500
G0 F3000 X157.462 Y157.898
;TYPE:SOLID-FILL
;WIDTH:0.520
G1 F1500 E0.4500
G1 F900 X156.837 Y158.523 E0.0478
G1 X156.352 Y159.473 E0.0576
G1 X155.310 Y159.134 E0.0592
G1 X153.334 Y158.834 E0.1080
G1 X152.684 Y162.999 E0.2278
G1 X153.320 Y167.168 E0.2279
G1 X155.301 Y166.868 E0.1083
G1 X156.352 Y166.527 E0.0597
G1 X156.837 Y167.477 E0.0576
G1 X157.462 Y168.102 E0.0478
G1 X156.047 Y170.901 E0.1695
G1 X159.809 Y172.810 E0.2280
G1 X163.977 Y173.493 E0.2283
G1 X164.299 Y171.505 E0.1088
G1 X164.299 Y170.410 E0.0592
G1 X165.352 Y170.243 E0.0576
G1 X166.302 Y169.760 E0.0576
G1 X166.946 Y170.646 E0.0592
G1 X168.367 Y172.051 E0.1080
G1 X171.344 Y169.065 E0.2279
G1 X173.284 Y165.304 E0.2287
G1 X171.456 Y164.382 E0.1107
G1 X170.448 Y164.054 E0.0573
G1 X170.614 Y163.000 E0.0577
G1 X170.448 Y161.946 E0.0577
G1 X171.489 Y161.609 E0.0591
G1 X173.279 Y160.686 E0.1088
G1 X171.345 Y156.936 E0.2280
G1 X168.378 Y153.938 E0.2280
G1 X166.946 Y155.354 E0.1088
G1 X166.302 Y156.240 E0.0592
G1 X165.352 Y155.757 E0.0576
G1 X164.299 Y155.590 E0.0576
G1 X164.299 Y154.495 E0.0592
G1 X163.980 Y152.520 E0.1081
G1 X159.813 Y153.189 E0.2281
G1 X156.039 Y155.087 E0.2283
G1 X157.417 Y157.809 E0.1649
G0 F900 X157.462 Y157.898
G1 F2700 E-0.4500
G0 F3000 X132.900 Y132.900
G1 F1500 E0.4500
G1 F900 X193.100 Y132.900 E3.2537
G1 X193.100 Y193.100 E3.2537
G1 X132.900 Y193.100 E3.2537
G1 X132.900 Y133.000 E3.2483
G0 F900 X132.900 Y132.900
G0 F3000 X133.380 Y133.004
G1 F900 X133.380 Y192.996 E3.2424
G0 F3000 X133.900 Y192.996
G1 F900 X133.900 Y133.004 E3.2424
G0 F3000 X134.420 Y133.004
G1 F900 X134.420 Y192.996 E3.2424
G0 F3000 X134.940 Y192.996
G1 F900 X134.940 Y133.004 E3.2424
G0 F3000 X135.460 Y133.004
G1 F900 X135.460 Y192.996 E3.2424
G0 F3000 X135.980 Y192.996
G1 F900 X135.980 Y133.004 E3.2424
G0 F3000 X136.500 Y133.004
G1 F900 X136.500 Y192.996 E3.2424
G0 F3000 X137.020 Y192.996
G1 F900 X137.020 Y133.004 E3.2424
G0 F3000 X137.540 Y133.004
G1 F900 X137.540 Y192.996 E3.2424
G0 F3000 X138.060 Y192.996
G1 F900 X138.060 Y133.004 E3.2424
G0 F3000 X138.580 Y133.004
G1 F900 X138.580 Y192.996 E3.2424
G0 F3000 X139.100 Y192.996
G1 F900 X139.100 Y133.004 E3.2424
G0 F3000 X139.620 Y133.004
G1 F900 X139.620 Y192.996 E3.2424
G0 F3000 X140.140 Y192.996
G1 F900 X140.140 Y133.004 E3.2424
G0 F3000 X140.660 Y133.004
G1 F900 X140.660 Y192.996 E3.2424
G0 F3000 X141.180 Y192.996
G1 F900 X141.180 Y133.004 E3.2424
G0 F3000 X141.700 Y133.004
G1 F900 X141.700 Y192.996 E3.2424
G0 F3000 X142.220 Y192.996
G1 F900 X142.220 Y133.004 E3.2424
G0 F3000 X142.740 Y133.004
G1 F900 X142.740 Y192.996 E3.2424
G0 F3000 X143.260 Y192.996
G1 F900 X143.260 Y133.004 E3.2424
G0 F3000 X143.780 Y133.004
G1 F900 X143.780 Y192.996 E3.2424
G0 F3000 X144.300 Y192.996
G1 F900 X144.300 Y133.004 E3.2424
G0 F3000 X144.820 Y133.004
G1 F900 X144.820 Y192.996 E3.2424
G0 F3000 X145.340 Y192.996
G1 F900 X145.340 Y133.004 E3.2424
G0 F3000 X145.860 Y133.004
G1 F900 X145.860 Y192.996 E3.2424
G0 F3000 X146.380 Y192.996
G1 F900 X146.380 Y133.004 E3.2424
G0 F3000 X146.900 Y133.004
G1 F900 X146.900 Y192.996 E3.2424
G0 F3000 X147.420 Y192.996
G1 F900 X147.420 Y133.004 E3.2424
G0 F3000 X147.940 Y133.004
G1 F900 X147.940 Y192.996 E3.2424
G0 F3000 X148.460 Y192.996
G1 F900 X148.460 Y133.004 E3.2424
G0 F3000 X148.980 Y133.004
G1 F900 X148.980 Y192.996 E3.2424
G0 F3000 X149.500 Y192.996
G1 F900 X149.500 Y133.004 E3.2424
G0 F3000 X150.020 Y133.004
G1 F900 X150.020 Y192.996 E3.2424
G0 F3000 X150.540 Y192.996
G1 F900 X150.540 Y133.004 E3.2424
G0 F3000 X151.060 Y133.004
G1 F900 X151.060 Y192.996 E3.2424
G0 F3000 X151.580 Y192.996
G1 F900 X151.580 Y133.004 E3.2424
G0 F3000 X152.100 Y133.004
G1 F900 X152.100 Y192.996 E3.2424
G0 F3000 X152.620 Y192.996
G1 F900 X152.620 Y163.268 E1.6067
G0 F3000 X152.620 Y162.737
G1 F900 X152.620 Y133.004 E1.6070
G0 F3000 X153.140 Y133.004
G1 F900 X153.140 Y159.403 E1.4268
G1 F2700 E-0.4500
G0 F3000 X153.660 Y158.778
G1 F1500 E0.4500
G1 F900 X153.660 Y133.004 E1.3930
G0 F3000 X154.180 Y133.004
G1 F900 X154.180 Y158.857 E1.3973
G0 F3000 X154.700 Y158.936
G1 F900 X154.700 Y133.004 E1.4016
G0 F3000 X155.220 Y133.004
G1 F900 X155.220 Y159.014 E1.4058
G0 F3000 X155.740 Y159.164
G1 F900 X155.740 Y133.004 E1.4139
G0 F3000 X156.260 Y133.004
G1 F900 X156.260 Y154.860 E1.1813
G0 F3000 X156.780 Y154.599
G1 F900 X156.780 Y133.004 E1.1672
G0 F3000 X157.300 Y133.004
G1 F900 X157.300 Y154.337 E1.1530
G0 F3000 X157.820 Y154.076
G1 F900 X157.820 Y133.004 E1.1389
G0 F3000 X158.340 Y133.004
G1 F900 X158.340 Y153.814 E1.1247
G0 F3000 X158.860 Y153.553
G1 F900 X158.860 Y133.004 E1.1106
G0 F3000 X159.380 Y133.004
G1 F900 X159.380 Y153.291 E1.0965
G0 F3000 X159.900 Y153.070
G1 F900 X159.900 Y133.004 E1.0845
G0 F3000 X160.420 Y133.004
G1 F900 X160.420 Y152.987 E1.0800
G0 F3000 X160.940 Y152.903
G1 F900 X160.940 Y133.004 E1.0755
G0 F3000 X161.460 Y133.004
G1 F900 X161.460 Y152.820 E1.0710
G0 F3000 X161.980 Y152.736
G1 F900 X161.980 Y133.004 E1.0665
G0 F3000 X162.500 Y133.004
G1 F900 X162.500 Y152.653 E1.0620
G0 F3000 X163.020 Y152.569
G1 F900 X163.020 Y133.004 E1.0574
G0 F3000 X163.540 Y133.004
G1 F900 X163.540 Y152.486 E1.0530
G0 F3000 X164.060 Y152.402
G1 F900 X164.060 Y133.004 E1.0484
G0 F3000 X164.580 Y133.004
G1 F900 X164.580 Y155.529 E1.2174
G0 F3000 X165.100 Y155.611
G1 F900 X165.100 Y133.004 E1.2219
G0 F3000 X165.620 Y133.004
G1 F900 X165.620 Y155.776 E1.2308
G0 F3000 X166.140 Y156.040
G1 F900 X166.140 Y133.004 E1.2450
G0 F3000 X166.660 Y133.004
G1 F900 X166.660 Y155.571 E1.2197
G1 F2700 E-0.4500
G0 F3000 X167.180 Y154.977
G1 F1500 E0.4500
G1 F900 X167.180 Y133.004 E1.1876
G0 F3000 X167.700 Y133.004
G1 F900 X167.700 Y154.463 E1.1598
G1 F2700 E-0.4500
G0 F3000 X168.220 Y153.949
G1 F1500 E0.4500
G1 F900 X168.220 Y133.004 E1.1320
G0 F3000 X168.740 Y133.004
G1 F900 X168.740 Y154.155 E1.1432
G1 F2700 E-0.4500
G0 F3000 X169.260 Y154.681
G1 F1500 E0.4500
G1 F900 X169.260 Y133.004 E1.1716
G0 F3000 X169.780 Y133.004
G1 F900 X169.780 Y155.206 E1.2000
G1 F2700 E-0.4500
G0 F3000 X170.300 Y155.732
G1 F1500 E0.4500
G1 F900 X170.300 Y133.004 E1.2284
G0 F3000 X170.820 Y133.004
G1 F900 X170.820 Y156.257 E1.2568
G1 F2700 E-0.4500
G0 F3000 X171.340 Y156.783
G1 F1500 E0.4500
G1 F900 X171.340 Y133.004 E1.2852
G0 F3000 X171.860 Y133.004
G1 F900 X171.860 Y157.707 E1.3351
G1 F2700 E-0.4500
G0 F3000 X172.380 Y158.716
G1 F1500 E0.4500
G1 F900 X172.380 Y133.004 E1.3897
G0 F3000 X172.900 Y133.004
G1 F900 X172.900 Y159.724 E1.4442
G1 F2700 E-0.4500
G0 F3000 X172.900 Y160.998
G1 F1500 E0.4500
G1 F900 X172.900 Y164.993 E0.2159
G0 F3000 X172.380 Y164.731
G1 F900 X172.380 Y161.266 E0.1873
G0 F3000 X171.860 Y161.534
G1 F900 X171.860 Y164.469 E0.1586
G0 F3000 X171.340 Y164.235
G1 F900 X171.340 Y161.766 E0.1334
G0 F3000 X170.820 Y161.935
G1 F900 X170.820 Y164.065 E0.1151
G1 F2700 E-0.4500
G0 F3000 X173.420 Y165.255
G1 F1500 E0.4500
G1 F900 X173.420 Y133.004 E1.7431
G0 F3000 X173.940 Y133.004
G1 F900 X173.940 Y192.996 E3.2424
G0 F3000 X173.420 Y192.996
G1 F900 X173.420 Y165.267 E1.4987
G1 F2700 E-0.4500
G0 F3000 X172.900 Y166.275
G1 F1500 E0.4500
G1 F900 X172.900 Y192.996 E1.4442
G0 F3000 X172.380 Y192.996
G1 F900 X172.380 Y167.283 E1.3897
G1 F2700 E-0.4500
G0 F3000 X171.860 Y168.291
G1 F1500 E0.4500
G1 F900 X171.860 Y192.996 E1.3352
G0 F3000 X171.340 Y192.996
G1 F900 X171.340 Y169.216 E1.2853
G1 F2700 E-0.4500
G0 F3000 X170.820 Y169.737
G1 F1500 E0.4500
G1 F900 X170.820 Y192.996 E1.2571
G0 F3000 X170.300 Y192.996
G1 F900 X170.300 Y170.259 E1.2289
G1 F2700 E-0.4500
G0 F3000 X169.780 Y170.781
G1 F1500 E0.4500
G1 F900 X169.780 Y192.996 E1.2007
G0 F3000 X169.260 Y192.996
G1 F900 X169.260 Y171.303 E1.1725
G1 F2700 E-0.4500
G0 F3000 X168.740 Y171.824
G1 F1500 E0.4500
G1 F900 X168.740 Y192.996 E1.1443
G0 F3000 X168.220 Y192.996
G1 F900 X168.220 Y172.052 E1.1320
G1 F2700 E-0.4500
G0 F3000 X167.700 Y171.538
G1 F1500 E0.4500
G1 F900 X167.700 Y192.996 E1.1598
G0 F3000 X167.180 Y192.996
G1 F900 X167.180 Y171.024 E1.1875
G1 F2700 E-0.4500
G0 F3000 X166.660 Y170.430
G1 F1500 E0.4500
G1 F900 X166.660 Y192.996 E1.2196
G0 F3000 X166.140 Y192.996
G1 F900 X166.140 Y169.959 E1.2451
G0 F3000 X165.620 Y170.223
G1 F900 X165.620 Y192.996 E1.2308
G0 F3000 X165.100 Y192.996
G1 F900 X165.100 Y170.388 E1.2219
G0 F3000 X164.580 Y170.470
G1 F900 X164.580 Y192.996 E1.2175
G0 F3000 X164.060 Y192.996
G1 F900 X164.060 Y173.612 E1.0477
G0 F3000 X163.540 Y173.527
G1 F900 X163.540 Y192.996 E1.0523
G0 F3000 X163.020 Y192.996
G1 F900 X163.020 Y173.442 E1.0568
G0 F3000 X162.500 Y173.357
